/* XPM */
static char *result[] = {
/* columns rows colors chars-per-pixel */
"50 50 14 1 ",
"  c #1E7CB8",
". c white",
"X c #5AAEE4",
"o c #328E41",
"O c #3ABE41",
"+ c #6ADD4B",
"@ c #79C8FA",
"# c #E7F3F3",
"$ c #27ABFA",
"% c #5633A8",
"& c #326DD9",
"* c #165C88",
"= c #333790",
"- c white",
/* pixels */
"                                                  ",
"                                                  ",
"                                                  ",
"         .......X   XX...XX         XX...X        ",
"         .......X   XX...XX         XX...X        ",
"      ...ooOOOoo......ooo...XX XX.....ooo...X     ",
"     .ooOOOOOOOOOOOOOOOOOOOo.....oOOOOOOOOoo.XX   ",
"     .ooOOOOOOOOOOOOOOOOOOOo.....oOOOOOOOOoo.XX   ",
"   ..oOOOOOOOOOOOOOOOOOOOOOOOOOOOOOOOO+OOOOOo..   ",
"   ..OOOOOOOOOOOOOOOOOOOOOOOOOOOOOOOOOOOOOOOO..   ",
"   ..OOOOOOOOOOOOOOOOOOOOOOOOOOOOOOOOOOOOOOOO..   ",
"   ..oOOOOOOOOOOOOOO++OOOOOOOOOOOOOOOOOOOOOOo..   ",
"   ..oOOOOOOOOOO@#################OOOOO++OOOo..   ",
"   ..oOOOOOOOOO$%#&&$$$$$@@@#@@@@@#OOOO++OOOo..   ",
"   XX.OOOOOOOO$%#&&$$$$$$$@@#@@@@@@#OO+ooOOO.XX   ",
"   XX.OOOOOOO$%%#&&$$$$$$$@@#@@@@@@@#O+ooOOO.XX   ",
"   **.ooOOOO@%%#&&$$$$$$$$@@#@@@@@@@@#+OOOOO.XX   ",
"   **.ooOOO@$$$########################OOOOOo..   ",
"   **.ooOOO$%%%#&&$$$$$$$$@@#@@@@@@@@##OOOOOo..   ",
"     X..OOO$%%%#&&$$$$$$$$@@#@@@@@@@@##OOOOOO..   ",
"     X..OOO&%%%#&&$$$$$$$$@@#@@@@@@@@##OOOOOo..   ",
"     X..OOO&%%%#&&$$$$$$$$@@#@@@@@@@@##OOOOOo..   ",
"   XX.ooOOO$%%%#&&$$$$$$$$@@#@@@@@@@@##OOOOOo..   ",
"   ..oOOOOO@$$#####@@@@@@##############OOOOO.XX   ",
"   ..oOOOOO$=%%$%%%&&$$$$$$$#$$&&&&&&&#OOOOO.XX   ",
"   ..oOOOOOO&=%&%%&&&&&&&&$$#&&&$$$$$#OOOOOO.**   ",
"   ..oOOOOOOO&=%$%%&&&&&&&&$@&&$$$$$#OOOOOOO.**   ",
"   XX.OOOOOOOO==%$%&&&&&&&$#&&$$$$$#OOOOOOOO.**   ",
"   **.ooOOOOOOO==%$%&&&&&&$#&&$$$$#OOOOOOOOO.XX   ",
"   **.ooOOOOOOOO==&%%&&&&&$@&$$$$@OOOOOOOOOO.XX   ",
"   **.ooOOOOOOOOO==$%&&&&$#&$$$$#+OOOOOOOOOOo..   ",
"     X..OOOOOOOOOO==$%&&&$#$$$$#++OOOOOOOOOOo..   ",
"     X..OOOOOOOOOOO==$%&&$#$$$#+++OOOOOOOOOOo..   ",
"     X..OOOOOOOOOOOO=&%%&$@$$#+++oOOOOOOOOOO.XX   ",
"   XX.ooOOOOOOOOOOOOO=$%$#$$@ooooOOOOOOOOOOO.XX   ",
"   XX.ooOOOOOOOOOOOOOO=$%#$@oooooOOOOOOOOOOO.XX   ",
"   ..oOOOOOOOOOOOOOOOOO=&@&OOOOOOOOOOOOOOOOOo..   ",
"   ..OOOOOO++OOOOOOOOOOO=&OOOOOOOOOOOOOOOOOOO..   ",
"   ..OOOOOO++OOOOOOOOOOOOOOOOOOOOOOOOOOOOOOOO..   ",
"   ..oOO+OO++OOOOOOOOOOOOOO+oooooOOOOOOOOOOOo..   ",
"   ..oOO+OO++OOOOOOOOOOOOOO+oooooOOOOOOOOOOOo..   ",
"   ..ooooOOooOOOoooo++OOOoooooooooooooOOOoooo..   ",
"   XX.oooooooooooooooooooooo.....ooooooooooo.XX   ",
"   XX.oooooooooooooooooooooo.....ooooooooooo.XX   ",
"   **X...ooooooo....ooooo...XX XX.....ooo...X**   ",
"   ***  X.......X  X.....XX ******  XX...X*****   ",
"   ***  X.......X  X.....XX ******  XX...X*****   ",
"     ****************************************     ",
"        *******************         ******        ",
"        *******************         ******        "
};
