/* XPM */
static char *_d4ec868f0394df9fd296d824b03f5a8OjCZGVExaaQzUIHM[] = {
/* columns rows colors chars-per-pixel */
"64 64 157 2 ",
"   c None",
".  c #000000",
"X  c #0A0502",
"o  c #0C0803",
"O  c #140C05",
"+  c #1A0E06",
"@  c #1C1306",
"#  c #1F1508",
"$  c #1F1C0B",
"%  c #241309",
"&  c #29160A",
"*  c #241908",
"=  c #2C1C0A",
"-  c #351C0D",
";  c #3A1F0E",
":  c #2D230D",
">  c #34230B",
",  c #3D260D",
"<  c #3B290E",
"1  c #2D2A11",
"2  c #332610",
"3  c #393616",
"4  c #422F0F",
"5  c #442411",
"6  c #442D10",
"7  c #4E2913",
"8  c #512A14",
"9  c #453211",
"0  c #4B3311",
"q  c #403A17",
"w  c #513C15",
"e  c #5A3817",
"r  c #64361A",
"t  c #6A3A1B",
"y  c #713E1C",
"u  c #4F4017",
"i  c #47431B",
"p  c #4E4B1E",
"a  c #51461C",
"s  c #5E471E",
"d  c #514C1E",
"f  c #654218",
"g  c #6E4D1A",
"h  c #7B441F",
"j  c #724D1B",
"k  c #7A551D",
"l  c #7E581E",
"z  c #5E5220",
"x  c #7C6C2A",
"c  c #855B1E",
"v  c #854E21",
"b  c #8A4A23",
"n  c #8B5F20",
"m  c #895C28",
"M  c #965426",
"N  c #9E5928",
"B  c #A35E27",
"V  c #A05728",
"C  c #A25B29",
"Z  c #AC5F2B",
"A  c #836223",
"S  c #916623",
"D  c #9A6424",
"F  c #956923",
"G  c #9B6B25",
"H  c #956F28",
"J  c #90792E",
"K  c #857931",
"L  c #8E7B32",
"P  c #A66229",
"I  c #A9632A",
"U  c #AA6929",
"Y  c #B0662C",
"T  c #B7692E",
"R  c #BB682F",
"E  c #A47327",
"W  c #AB792A",
"Q  c #B17D2A",
"!  c #BB6C31",
"~  c #BD7233",
"^  c #BC7835",
"/  c #C2732F",
"(  c #C37E2F",
")  c #C76F32",
"_  c #CB7334",
"`  c #CD7936",
"'  c #D97736",
"]  c #D67A36",
"[  c #DB7937",
"{  c #DE7B38",
"}  c #E37E39",
"|  c #928435",
" . c #998B38",
".. c #B8802C",
"X. c #A58E3B",
"o. c #A9953B",
"O. c #AA993E",
"+. c #C1872E",
"@. c #C3882E",
"#. c #CC8D30",
"$. c #D48335",
"%. c #D38933",
"&. c #D7833A",
"*. c #DA843A",
"=. c #DD8A3C",
"-. c #D29433",
";. c #DA9532",
":. c #DB9A35",
">. c #E38B37",
",. c #EB8D3A",
"<. c #E49237",
"1. c #E29D35",
"2. c #EA9F37",
"3. c #ED953A",
"4. c #EE9D39",
"5. c #F2953B",
"6. c #F39C3B",
"7. c #F89F3C",
"8. c #DCA43B",
"9. c #E1A43A",
"0. c #EBA438",
"q. c #E4A83B",
"w. c #E9AB3B",
"e. c #F4A33B",
"r. c #FBA63D",
"t. c #F4AB3A",
"y. c #FBAD3B",
"u. c #EFB13F",
"i. c #F1B03D",
"p. c #FEB33D",
"a. c #FFB93F",
"s. c #B7A442",
"d. c #E19941",
"f. c #EFA540",
"g. c #E5AE40",
"h. c #F5AE40",
"j. c #EFB642",
"k. c #F2B641",
"l. c #FABB44",
"z. c #F6B449",
"x. c #F6BE48",
"c. c #D6C24F",
"v. c #DEC54F",
"b. c #DCC751",
"n. c #FDC247",
"m. c #FFC648",
"M. c #F5D557",
"N. c #F9D454",
"B. c #F6D959",
"V. c #F9DB59",
"C. c #F7E35C",
"Z. c #FBE25B",
"A. c #FEE95E",
"S. c #FFEE5F",
"D. c #FEEE60",
"F. c #FDF363",
"G. c #FFF664",
/* pixels */
"                                                                                                                                ",
"                                                                                                                                ",
"                                                                                                                                ",
"                                                                                                                                ",
"                                                                                                                                ",
"                                                                                                                                ",
"                                                                                                                                ",
"                                                                                                                                ",
"                                                                                                                                ",
"                                                                                                                                ",
"                                                                                                                                ",
"                                                                                                                                ",
"                                                                                                                                ",
"                                                                                                                                ",
"                                                            . . .                                                               ",
"                                                          8 m  . .q                                                             ",
"                                                        5 B z.G.F.J ,                                                           ",
"                                                      = Y 7.j.c.M.n.G *                                                         ",
"                                                    & R 4.p.W : ! 6.y.Q o                                                       ",
"                                                    & _ r.F >   - P r.@.o                                                       ",
"                                                . . & ) r.g .   . b 5.+.o . .                                                   ",
"                                              - 6 4 f $.r.F >   ; I 7.-.a 9 9 <                                                 ",
"                                            & T 4.t.t.y.y.p.W 2 ~ e.y.l.V.k.y.E @                                               ",
"                                          - T 4.y.p.y.y.y.y.k.b.M.l.r.l.Z.l.y.t...@                                             ",
"                                        7 P 6.p.S 0 j >.r.y.n.D.A.n.p.:.z w U 7.i.o.3                                           ",
"                                      . t ,.t.E 4 . % h $.e.n.A.A.n.#.k o . 8 B f.C.i .                                         ",
"                                      . t ,.1.*       X V 3.n.A.A.m.c .     . 5 *.B.i .                                         ",
"                                      . t ,.1.:       O C 5.n.A.A.m.n X     . 7 =.B.i .                                         ",
"                                      . t ,.t.#.0 . % N <.r.n.A.A.n.1.G o . r / h.C.i .                                         ",
"                                        ; v 3.p.Q l G 3.y.y.n.A.A.n.p.q.L A ( r.w.x 1                                           ",
"                                          - M <.p.a.a.a.p.y.n.A.A.m.y.n.S.m.a.1.F @                                             ",
"                                            O V %.:.:.:.:.2.l.V.V.g.;.8.v.8.1.S .                                               ",
"                                              + @ # # # @ v *.*.&.e @ # $ # # #                                                 ",
"                                                        . y ' ] <.0 .                                                           ",
"                                                        . y ' *.x.u .                                                           ",
"                                                        . y ' *.B.p .                                                           ",
"                                                        . y ' *.B.p .                                                           ",
"                                                        . y ' *.B.d . . .                                                       ",
"                                                        . y ' *.V.p > H | 1                                                     ",
"                                                        . y [ ` X.s D k.O.1                                                     ",
"                                                        . y { ! , M 5.+.o                                                       ",
"                                                        . y [ ] :.$.3.+.O                                                       ",
"                                                        . y ' *.N.d.>.u.s.1                                                     ",
"                                                        . y [ _ L ^ 5.9.K :                                                     ",
"                                                        . y } R + r $.-.6                                                       ",
"                                                        . t _ Z + . j 0.-.:                                                     ",
"                                                          # % %     * = =                                                       ",
"                                                                                                                                ",
"                                                                                                                                ",
"                                                                                                                                ",
"                                                                                                                                ",
"                                                                                                                                ",
"                                                                                                                                ",
"                                                                                                                                ",
"                                                                                                                                ",
"                                                                                                                                ",
"                                                                                                                                ",
"                                                                                                                                ",
"                                                                                                                                ",
"                                                                                                                                ",
"                                                                                                                                ",
"                                                                                                                                ",
"                                                                                                                                ",
"                                                                                                                                "
};
