/* XPM */
static char *result[] = {
/* columns rows colors chars-per-pixel */
"49 49 127 2 ",
"   c #000101",
".  c #050A04",
"X  c #080D07",
"o  c #070A09",
"O  c #0A0C0A",
"+  c #0C120C",
"@  c #10150F",
"#  c #10180F",
"$  c #0F1311",
"%  c #121512",
"&  c #151B15",
"*  c #181D17",
"=  c #161C1A",
"-  c #191C1A",
";  c #142015",
":  c #1C221D",
">  c #1D291F",
",  c #20261F",
"<  c #1F2422",
"1  c #1E2921",
"2  c #212522",
"3  c #242B24",
"4  c #282F27",
"5  c #272C29",
"6  c #292D2A",
"7  c #283027",
"8  c #2B322C",
"9  c #30372F",
"0  c #2E3331",
"q  c #323533",
"w  c #383737",
"e  c #343B34",
"r  c #383F37",
"t  c #383738",
"y  c #363B39",
"u  c #3B3D3C",
"i  c #3C433C",
"p  c #40473F",
"a  c #3F4441",
"s  c #3E4941",
"d  c #434643",
"f  c #454B44",
"g  c #474C49",
"h  c #4B4C4B",
"j  c #455247",
"k  c #4C524C",
"l  c #50574F",
"z  c #4E5451",
"x  c #535453",
"c  c #555B54",
"v  c #585F57",
"b  c #575D5A",
"n  c #5B5B5B",
"m  c #566259",
"M  c #5C625C",
"N  c #60675F",
"B  c #5E6361",
"V  c #626463",
"C  c #646B64",
"Z  c #686C66",
"A  c #656B69",
"S  c #6B6C6B",
"D  c #6C736C",
"F  c #6E796F",
"G  c #70776F",
"H  c #6D7371",
"J  c #737473",
"K  c #757B74",
"L  c #767B79",
"P  c #7B7D7B",
"I  c #7D847D",
"U  c #80867F",
"Y  c #7F8380",
"T  c #848685",
"R  c #848B84",
"E  c #888F87",
"W  c #868C89",
"Q  c #8B8C8B",
"!  c #8D938D",
"~  c #90978F",
"^  c #8E8F90",
"/  c #8D9392",
"(  c #939593",
")  c #9A9697",
"_  c #949994",
"`  c #969C9A",
"'  c #9B9E9D",
"]  c #9DA29D",
"[  c #A0A39F",
"{  c #A0A89F",
"}  c #9EA4A2",
"|  c #A3A4A4",
" . c #A4AAA5",
".. c #A6ABAA",
"X. c #ABACAC",
"o. c #B1AEAF",
"O. c #ABB2AC",
"+. c #B0B0AF",
"@. c #B2AFB0",
"#. c #AEB2B1",
"$. c #B3B4B3",
"%. c #BAB4B6",
"&. c #B5B9B5",
"*. c #B7B7B8",
"=. c #BCB7B9",
"-. c #B6B9B8",
";. c #BCBBBB",
":. c #C1BCBE",
">. c #BDC3BE",
",. c #C4BFC1",
"<. c #BEC2C1",
"1. c #C4C3C3",
"2. c #C9C4C6",
"3. c #C7C9C7",
"4. c #CDC6CA",
"5. c #C6CAC8",
"6. c #CCCCCC",
"7. c #D1CCCD",
"8. c #CDD1CE",
"9. c #D3CDD2",
"0. c #D4D2D3",
"q. c #D9D7D7",
"w. c #D7D1D8",
"e. c #DAD6DA",
"r. c #D7D9D9",
"t. c #D9DCDB",
"y. c #DAE0DE",
/* pixels */
"d %                                                                                               ",
"Q L w X                                                       O * + .                             ",
"V ] { N 2 .                               . O o         . $ < q i 7 X .   . .                     ",
"w J ] { Q S x h h h z z z x x n n n x d h J P P S V V V S D A b k 7 X   . X + # +                 ",
"- f F ` +.$.o.X.X.$.*.*.-.=.;.;.;.;.-.X. .%.=.;.$.+.%.$.$.} / Y D k : . X + * 4 < o               ",
"- s Z ! O.-.2.6.8.w.e.e.e.e.e.0.w.w.0.7.:.;.:.2.1.1.5.6.1.#.} } ] E c & . . X & & o               ",
"t V R ' X.-.>.6.9.9.w.9.7.7.9.7.7.7.7.2.:.:.:.2.:.<.5.4.5.;.#.$.$.X.Q f , ; # . .                 ",
"J / | X.%.;.>.1.4.e.e.9.9.7.4.4.7.7.0.4.:.:.,.2.:.:.5.6.5.;.=.-.%.%.| R D c i 7 + . .             ",
"| o.%.=.:.:.=.-.1.9.9.4.4.4.1.,.4.9.0.2.:.:.,.,.-.;.5.4.:.*.-.;.:.;.-.X.] R K N 7 .               ",
";.=.:.:.1.,.%.$.*.;.;.;.,.4.,.;.2.9.9.:.%.:.:.=.*.*.,.1.-.+.#.*.1.5.-.#. .] ' ! d O               ",
",.%.$.@.@.@.X.| | ......$.<.;.=.:.9.4.=.@.%.=.$.X...X.| ( / ( ' } X.$.$.$.+. .' N &               ",
"Q n g g h h h x n H L / X.$.#.$.:.0.9.=.@.@.X.) P J S d 0 0 0 0 0 a B T | ..X.%.Q 6               ",
"% o o   o     o o $ 5 m / | } X.,.0.9.:.o.X.Q x - % O . o o . . .   o % u Q | #.| g               ",
"      O % - - $   o o = u Y } #.,.0.7.:.%.) x %       % y 2 $ = %   .   O n | %.,.^ w             ",
"    % 2 % o q f =   . o < H } #.2.9.7.:.@.^ h %       z b :   2 e +       u } ;.;.=.Q 0           ",
"    q 6 $   2 M x     - k Y ' #.7.9.7.:.%.) A i - .   b g %   < i -     $ V X.:.:.=.@.J -         ",
"    u 0 O   & l l . X i Y ` } #.7.0.7.2.:.| Q J e     8 d < o - 6 +     a | ;.3.1.$.-.' g         ",
"    < 5 $ . 4 d 7   $ Z ] } O.>.8.0.7.2.=.+.| Q i X   O : = o o O   . w ^ :.1.3.<.%.O.$.P ,       ",
"d - o $ . O : - .   : E ] ..%.1.6.7.2.:.=.+.X.) g o     o $ O $ = 6 z ! ,.;.1.>.&.{ ( ] ~ k       ",
"| L h t 0 0 e e 2 & r ! ] ..;.6.7.6.1.=.=.+.X.[ V - % a n n n V J ) $.2.:.-.=.$.{ I C D R N +     ",
"9.8.1.X.] ] {  .R c M E _  .:.3.8.6.>.:.&.%.o.' Y B B } ;.2.5.6.0.r.0.5.=.$.$.} R c i f C M &   . ",
"4.7.q.e.q.y.y.t.8. .! R R [ %.1.3.>.:.&.-.&. .~ Y } <.6.9.0.0.8.6.6.6.1.$.| ' Y k , 2 i l j +   . ",
"5.6.6.0.r.y.r.r.5.>. .I G ~  .+.&.&.&.&.+.+.{ I L } 5.5.6.8.7.7.4.6.5.*.} L B g *   : f p ,       ",
";.:.5.8.0.0.y.0.5.>.] I F E { O.O.O.O.O.O.O.] K W X.5.7.8.7.8.6.6.<.$.' H u 0 $     3 k p &       ",
"| $.1.6.8.0.q.0.3.&. .D k Z R ! E E E R I I L D ( X.1.6.7.6.5.-.%.X.T d 2 o o .     % e i &       ",
"x T +.:.1.6.6.6.3.O.~ i > 7 f c c M c p : & : < z | <.5.1.;.$.+.X.| J -             . * > #       ",
"0 B Y _ ..&.<.5.3. .h $ . o : 5 4 6 2 %       o 0 ' *.-.-...| | { _ D <     .         + & +       ",
"% u n U _  .$.>.1.$.n     . . . o . o         $ B } X.$.#.} } ( K m f : .             . # +       ",
"X ; i M I ` ..#.$.$.Q 2 .                   O h W } ..X...} } / K l 7 # .               + +       ",
"  2 l Z I `  .O.#.$.$.P t o   .           O t P ` } } ....` W I C g 3 o               X + O .     ",
"O d D D K I W ! ]  .X. .H -             o < B Y W W I H A z a 0 5 3 < .               % * .     . ",
"$ 8 r r i i s f c F K K C < .           o 5 z B A A k e 1 # o . o % = .   .         . , 3 O   .   ",
"      . . + + + & 7 9 9 4 + .             % 2 0 0 e 5 < + + . X + $ + .             % p l ,       ",
"    . X X + + X X X X X                                 .                           2 Z ! M %     ",
"                                                                                    6 D { ] V @   ",
"                                                                                  X r P | %.o.n O ",
"                                                                                X 8 C _ X.$.%.} u ",
"                                                                                , c T | @.=.-.%.Q ",
"                                                                            . 2 k K (  .$.;.*.$.o.",
"                                                                          . 6 V E _ ] ..-.%.$.$.$.",
"                                                                        X 7 v E } } | X.*.$.$.$.$.",
"                                                                        : c K ( } } ..#.$.$.$.$.$.",
"                                                                      + f G E _ } ..O.#.$.$.$.$.$.",
"                                                                    X 8 N I ~ ] ..X.#.$.+.+.$.$.$.",
"O                                                                 . ; k G K ~ [ | | X.+.@.$.$.$.$.",
"< @ X .                                                         . & e l Z L _ { | } | o.$.$.$.$.$.",
"9 > : # + .                                                     + i k m N R ) | ' | ..o.@.$.+.+.o.",
"p i i 3 ; + X                                                 O > k N F G I _ ' ' | | | | | | | | ",
"l k p 9 > ; + . .                       .             . . O & 6 i m I I I I ! ] ] ] ]  .| [ | | | "
};
