/* XPM */
static char *result[] = {
/* columns rows colors chars-per-pixel */
"50 50 16 1 ",
"  c #1E7CB8",
". c white",
"X c #5AAEE4",
"o c #328E41",
"O c #3ABE41",
"+ c #5F5F5F",
"@ c gray50",
"# c #6ADD4B",
"$ c #727272",
"% c black",
"& c #482D1E",
"* c #865337",
"= c #5F3A27",
"- c #744730",
"; c #165C88",
": c white",
/* pixels */
"                                                  ",
"                                                  ",
"                                                  ",
"         .......X   XX...XX         XX...X        ",
"         .......X   XX...XX         XX...X        ",
"      ...ooOOOoo......o+++++XX XX.....ooo...X     ",
"     .ooOOOOOOOOOOO++++@@@@@+++..oOOOOOOOOoo.XX   ",
"     .ooOOOOOOOOOOO++++@@@@@+++..oOOOOOOOOoo.XX   ",
"   ..oOOOOOOOOOO+++@@@@@@@@@@@@+++OOOO#OOOOOo..   ",
"   ..OOOOOOOOOO+$$@@@@@@@@@@@@@@@@+OOOOOOOOOO..   ",
"   ..OOOOOOOOOO+$$@@@@@@%%%%@@@@@@@+OOOOOOOOO..   ",
"   ..oOOOOOOOO+$@@@@@%%%%&%%%%@@@@@@++OOOOOOo..   ",
"   ..oOOOOOOOO+$@@@@@%%%%&%%%%@@@@@@+OO##OOOo..   ",
"   ..oOOOOOOOO+$@@@@%&&&&***=-%@@@@@+OO##OOOo..   ",
"   XX.OOOOO+++$@@@@%&&&&****=--%%@@@@++ooOOO.XX   ",
"   XX.OOOO+$$@@@@@@%&--&****=--%%@@@@@@+oOOO.XX   ",
"   ;;.ooOO+$$@@@@@%&&--&****=----%@@@@@+OOOO.XX   ",
"   ;;.ooOO+$$@@@@@%&&--&****=-----%@@@@@+OOOo..   ",
"   ;;.ooO+$$$@@@%%&&---&****=-----%@@@@@+OOOo..   ",
"     X..O+$@@@@@%%&----&****=-----%@@@@@+OOOO..   ",
"     X..O+$@@@@%&&&----&****=-=---=%@@@@+OOOo..   ",
"     X..O+$@@@@%&&=----&****=-==--=%@@@@+OOOo..   ",
"   XX.ooO+$@@@@%&&=----&***==-----=%@@@@+OOOo..   ",
"   ..oOOO+$@@@@%&&=----&***==-----=%@@@@+OOO.XX   ",
"   ..oOOO+$@@@@%&&=----&***==-----=%@@@@+OOO.XX   ",
"   ..oOO+$$@@@@%&&=----&*=*==-----=%@@@@@+OO.;;   ",
"   ..oOO+$$@@@@%&&=----&*=*==-----=%@@@@@+OO.;;   ",
"   XX.OO+$$@@@@%&&=---&&***==-----=*%@@@@+OO.;;   ",
"   ;;.oo+$$@@@%&&&=---&&***==-----=*%@@@@+OO.XX   ",
"   ;;.oo+$$@@@%&--=---&&***==-----=*%@@@@+OO.XX   ",
"   ;;.oo+$$@@@%&--=---&&***==-----=*%@@@@+OOo..   ",
"     X..+$$@@@%&--=---&&***==-----=*%@@@@+OOo..   ",
"     X..+$$@@@%&-==---&&***==---%%=*%@@@@+OOo..   ",
"     X..+$$@@@%&-==---&&***==---%%=*%@@@@+OO.XX   ",
"   XX.+++$@@@@%&-==---&&***==--%%%%*%@@@@+++.XX   ",
"   XX.++$$@@@@%&-==---&&***==-%%%%=*%@@@@@++.XX   ",
"   ..o++$$@@@%%&-==---&&***==---===*%%%@@@++o..   ",
"   ..O++$$@@%%&&-==---&&***==---===**%%@@@++O..   ",
"   ..O++$$@@%%&&-==---&&***==---===**%%@@@++O..   ",
"   ..o++$$@@%%&--==---&&***==-----=**%%@@@++o..   ",
"   ..o++$@@@%%&--==---&&***==-----=**%%@@@++o..   ",
"   ..o++$@@@%%&--==---&&***==-----=**%%@@@++o..   ",
"   XX.+$$@@@%%&--===--&&***==-----=**%%@@@++.XX   ",
"   XX.+$$@@@%%&--===--&&***==-----=**%%@@@++.XX   ",
"   ;;X+$$@@@%%&--===--&&**===-----=**%%@@@++X;;   ",
"   ;;;  X.......X  X.....XX ;;;;;;  XX...X;;;;;   ",
"   ;;;  X.......X  X.....XX ;;;;;;  XX...X;;;;;   ",
"     ;;;;;;;;;;;;;;;;;;;;;;;;;;;;;;;;;;;;;;;;     ",
"        ;;;;;;;;;;;;;;;;;;;         ;;;;;;        ",
"        ;;;;;;;;;;;;;;;;;;;         ;;;;;;        "
};
