/* XPM */
static char *f78b3f5741e34ec79d4846aff6345538omBQEPp7DSbSESMN[] = {
/* columns rows colors chars-per-pixel */
"64 64 31 1 ",
"  c #86AF26",
". c #86AE26",
"X c #86B026",
"o c #86B526",
"O c #86C926",
"+ c #86CA26",
"@ c #86CC26",
"# c #86CB26",
"$ c #86CD26",
"% c #86C426",
"& c #86C626",
"* c #86C126",
"= c #86B726",
"- c #86C026",
"; c #86AD26",
": c #86B626",
"> c #86AC26",
", c #86B426",
"< c #86BA26",
"1 c #86B926",
"2 c #86BE26",
"3 c #86BD26",
"4 c #86C326",
"5 c #86C226",
"6 c #86C826",
"7 c #86BF26",
"8 c #86BC26",
"9 c #86BB26",
"0 c #86C526",
"q c #86B826",
"w c white",
/* pixels */
"                                                                ",
"                                                                ",
"   ..........................................................   ",
"  .XooooooooooooooooooooooooooooooooooooooooooooooooooooooooX.  ",
"  .oO++++++++++++++++++++++++++++++++++++++++++++++++++++++Oo.  ",
"  .o+@@@@@@@@@@@@@@@@@@@@@@@@@@@@@@@@@@@@@@@@@@@@@@@@@@@@@@+o.  ",
"  .o+@@@@@@@@@@@@@@@@@@@@@@@@@@@@@@@@@@@@@@@@@@@@@@@@@@@@@@+o.  ",
"  .o+@@@@@@@@@@@@@@@@@@@@@@@@@@@@@@@@@@@@@@@@@@@@@@@@@@@@@@+o.  ",
"  .o+@@@@@@@@@@@@@@@@@@@@@@@@@@@@@@@@@@@@@@@@@@@@@@@@@@@@@@+o.  ",
"  .o+@@@@@@@@@@@@@@@@@@@@@@@@@@@@@@@@@@@@@@@@@@@@@@@@@@@@@@+o.  ",
"  .o+@@@@@@@@@@@@@@@@@@@@@@@@@@@@@@@@@@@@@@@@@@@@@@@@@@@@@@+o.  ",
"  .o+@@@@@@@@@@#@@@@@@@@@@@@@@@@@@@@@@@@@@@$@@#@@@@@@@@@@@@+o.  ",
"  .o+@@@@@@@@@@@O%%%%%%%%%%%%%%%%%%%%%%%%%%%&#@@@@@@@@@@@@@+o.  ",
"  .o+@@@@@@@@@@$*                           =#@@@@@@@@@@@@@+o.  ",
"  .o+@@@@@@@@@@$-..........................;:#@@@@@@@@@@@@@+o.  ",
"  .o+@@@@@@@@@@$-.. .;;;;;;;;;;;;;;;;;;;;;;>o+@@@@@@@@@@@@@+o.  ",
"  .o+@@@@@@@@@@$-...,<<<<<<<<<<<<<<<<<<<<<<12#@@@@@@@@@@@@@+o.  ",
"  .o+@@@@@@@@@@$-...2$@@@@@@@@@@@@@@@@@@@@@@@@@@@@@@@@@@@@@+o.  ",
"  .o+@@@@@@@@@@$-...2@@@@@@@@@@@@@@@@@@@@@@@@@@@@@@@@@@@@@@+o.  ",
"  .o+@@@@@@@@@@$-...3@@@@@@@@@@@@@@@@@@@@@@@@@@@@@@@@@@@@@@+o.  ",
"  .o+@@@@@@@@@@$-...3@@@@@@@@@@@@@@@@@@@@@@@@@@@@@@@@@@@@@@+o.  ",
"  .o+@@@@@@@@@@$-...3@@@@@@@@@@@@@@@@@@@@@@@@@@@@@@@@@@@@@@+o.  ",
"  .o+@@@@@@@@@@$-...3@@@@@@@@@@@@@@@@@@@@@@@@@@@@@@@@@@@@@@+o.  ",
"  .o+@@@@@@@@@@$-...3@@@@@@@@@@@@@@@@@@@@@@@@@@@@@@@@@@@@@@+o.  ",
"  .o+@@@@@@@@@@$-...3@@@@@@@@@@@@@@@@@@@@@@@@@@@@@@@@@@@@@@+o.  ",
"  .o+@@@@@@@@@@$-...3@@@@@@@@@@@@@@@@@@@@@@@@@@@@@@@@@@@@@@+o.  ",
"  .o+@@@@@@@@@@$-...3@@@@@@@@@@@@@@@@@@@@@@@@@@@@@@@@@@@@@@+o.  ",
"  .o+@@@@@@@@@@$-...3@@@@@@@@@@@@@@@@@@@@@@@@@@@@@@@@@@@@@@+o.  ",
"  .o+@@@@@@@@@@$-...3@@@@@@@@@@@@@@@@@@@@@@@@@@@@@@@@@@@@@@+o.  ",
"  .o+@@@@@@@@@@$-...2$$$$$$$$$$$$$$$$$@#@@@@@@@@@@@@@@@@@@@+o.  ",
"  .o+@@@@@@@@@@$-...1455555555555555556@@@@@@@@@@@@@@@@@@@@+o.  ",
"  .o+@@@@@@@@@@$-...                 .-@@@@@@@@@@@@@@@@@@@@+o.  ",
"  .o+@@@@@@@@@@$-.. ..................7$@@@@@@@@@@@@@@@@@@@+o.  ",
"  .o+@@@@@@@@@@$-.. .................;7$@@@@@@@@@@@@@@@@@@@+o.  ",
"  .o+@@@@@@@@@@$-...o888888888888888890@@@@@@@@@@@@@@@@@@@@+o.  ",
"  .o+@@@@@@@@@@$-...2$@@@@@@@@@@@@@@@@@#@@@@@@@@@@@@@@@@@@@+o.  ",
"  .o+@@@@@@@@@@$-...3@@@@@@@@@@@@@@@@@@@@@@@@@@@@@@@@@@@@@@+o.  ",
"  .o+@@@@@@@@@@$-...3@@@@@@@@@@@@@@@@@@@@@@@@@@@@@@@@@@@@@@+o.  ",
"  .o+@@@@@@@@@@$-...3@@@@@@@@@@@@@@@@@@@@@@@@@@@@@@@@@@@@@@+o.  ",
"  .o+@@@@@@@@@@$-...3@@@@@@@@@@@@@@@@@@@@@@@@@@@@@@@@@@@@@@+o.  ",
"  .o+@@@@@@@@@@$-...3@@@@@@@@@@@@@@@@@@@@@@@@@@@@@@@@@@@@@@+o.  ",
"  .o+@@@@@@@@@@$-...3@@@@@@@@@@@@@@@@@@@@@@@@@@@@@@@@@@@@@@+o.  ",
"  .o+@@@@@@@@@@$-...3@@@@@@@@@@@@@@@@@@@@@@@@@@@@@@@@@@@@@@+o.  ",
"  .o+@@@@@@@@@@$-...3@@@@@@@@@@@@@@@@@@@@@@@@@@@@@@@@@@@@@@+o.  ",
"  .o+@@@@@@@@@@$-...3@@@@@@@@@@@@@@@@@@@@@@@@@@@@@@@@@@@@@@+o.  ",
"  .o+@@@@@@@@@@$-...3@@@@@@@@@@@@@@@@@@@@@@@@@@@@@@@@@@@@@@+o.  ",
"  .o+@@@@@@@@@@$-...3@@@@@@@@@@@@@@@@@@@@@@@@@@@@@@@@@@@@@@+o.  ",
"  .o+@@@@@@@@@@$-...2$$$$$$$$$$$$$$$$$$$$$$$@@#@@@@@@@@@@@@+o.  ",
"  .o+@@@@@@@@@@$-...q*----------------------4#@@@@@@@@@@@@@+o.  ",
"  .o+@@@@@@@@@@$-.. .......................;:#@@@@@@@@@@@@@+o.  ",
"  .o+@@@@@@@@@@$-.. .......................;:#@@@@@@@@@@@@@+o.  ",
"  .o+@@@@@@@@@@$-..........................;o+@@@@@@@@@@@@@+o.  ",
"  .o+@@@@@@@@@@@&333333333333333333333333333*#@@@@@@@@@@@@@+o.  ",
"  .o+@@@@@@@@@@#@@@@@@@@@@@@@@@@@@@@@@@@@@@@@@#@@@@@@@@@@@@+o.  ",
"  .o+@@@@@@@@@@@@@@@@@@@@@@@@@@@@@@@@@@@@@@@@@@@@@@@@@@@@@@+o.  ",
"  .o+@@@@@@@@@@@@@@@@@@@@@@@@@@@@@@@@@@@@@@@@@@@@@@@@@@@@@@+o.  ",
"  .o+@@@@@@@@@@@@@@@@@@@@@@@@@@@@@@@@@@@@@@@@@@@@@@@@@@@@@@+o.  ",
"  .o+@@@@@@@@@@@@@@@@@@@@@@@@@@@@@@@@@@@@@@@@@@@@@@@@@@@@@@+o.  ",
"  .o+@@@@@@@@@@@@@@@@@@@@@@@@@@@@@@@@@@@@@@@@@@@@@@@@@@@@@@+o.  ",
"  .oO++++++++++++++++++++++++++++++++++++++++++++++++++++++Oo.  ",
"  .XooooooooooooooooooooooooooooooooooooooooooooooooooooooooX.  ",
"   ..........................................................   ",
"                                                                ",
"                                                                "
};
