/* XPM */
static char *result[] = {
/* columns rows colors chars-per-pixel */
"50 50 123 2 ",
"   c #000000",
".  c #161616",
"X  c #181717",
"o  c #1D1917",
"O  c #1C1C1B",
"+  c #231B17",
"@  c #211D1B",
"#  c #23221E",
"$  c #2D2019",
"%  c #34241B",
"&  c #39261D",
"*  c #3F291C",
"=  c #242321",
"-  c #302720",
";  c #372B23",
":  c #3C2C22",
">  c #36332D",
",  c #3A342D",
"<  c #20333F",
"1  c #472D1E",
"2  c #482D1E",
"3  c #422D22",
"4  c #493124",
"5  c #4C382C",
"6  c #533424",
"7  c #5F3A27",
"8  c #5C3B2A",
"9  c #483B31",
"0  c #4B443A",
"q  c #574437",
"w  c #56473A",
"e  c #51493E",
"r  c #58493A",
"t  c #66412D",
"y  c #6A432E",
"u  c #70452F",
"i  c #744730",
"p  c #744A32",
"a  c #7F4F35",
"s  c #1B3C51",
"d  c #14425F",
"f  c #144361",
"g  c #155176",
"h  c #444342",
"j  c gray31",
"k  c #5A5246",
"l  c #5D564A",
"z  c #5F584C",
"x  c #575758",
"c  c #5F5F5F",
"v  c #605344",
"b  c #615648",
"n  c #655A4C",
"m  c #6B5D4D",
"M  c #6D604F",
"N  c #6C6050",
"B  c #746555",
"V  c #756B5B",
"C  c #796E5D",
"Z  c #7B705F",
"A  c #6A6A6A",
"S  c #7E7463",
"D  c #727272",
"F  c #7F7F7F",
"G  c #865337",
"H  c #82735E",
"J  c #817664",
"K  c #837966",
"L  c #8F7E67",
"P  c #328E41",
"I  c #3ABE41",
"U  c #6ADD4B",
"Y  c #8B806C",
"T  c #91836C",
"R  c #9A876E",
"E  c #928672",
"W  c #968975",
"Q  c #9A8C76",
"!  c #9B8E79",
"~  c #9D907A",
"^  c #A28E74",
"/  c #A59176",
"(  c #AA967A",
")  c #165781",
"_  c #165B86",
"`  c #165C88",
"'  c #1A618E",
"]  c #1E7CB8",
"[  c #5096C3",
"{  c #57A8DC",
"}  c #58AADF",
"|  c #5AAEE4",
" . c #AC9E85",
".. c #B49E81",
"X. c #AFA087",
"o. c #B5A286",
"O. c #BCA586",
"+. c #B4A48A",
"@. c #BBAC90",
"#. c #C4AC8D",
"$. c #C7B08F",
"%. c #CAB18F",
"&. c #C0B094",
"*. c #CBB392",
"=. c #C7B699",
"-. c #CCBB9D",
";. c #D0B997",
":. c #D3BE9E",
">. c #D7C19F",
",. c #D5C2A2",
"<. c #DBC5A4",
"1. c #DDC8A6",
"2. c #DECBAB",
"3. c #E2CDAC",
"4. c #E5D1AF",
"5. c #E7D3B1",
"6. c #E8D4B2",
"7. c #EED9B6",
"8. c #F2DDB9",
"9. c #F6E0BC",
"0. c #ECECEC",
"q. c #F4F4F4",
"w. c #FFFFFF",
/* pixels */
"] ] ] ] ] ] ] ] ] ] ] ] ] ] ] ] ] ] ] ] ] ] ] ] ] ] ] ] ] ] ] ] ] ] ] ] ] ] ] ] ] ] ] ] ] ] ] ] ] ] ",
"] ] ] ] ] ] ] ] ] ] ] ] ] ] ] ] ] ] ] ] ] ] ] ] ] ] ] ] ] ] ] ] ] ] ] ] ] ] ] ] ] ] ] ] ] ] ] ] ] ] ",
"] ] ] ] ] ] ] ] ] ] ] ] ] ] ] ] ] ] ] ] ] ] ] ] ] ] ] ] ] ] ] ] ] ] ] ] ] ] ] ] ] ] ] ] ] ] ] ] ] ] ",
"] ] ] ] ] ] ] ] ] w.w.w.w.w.w.w.| ] ] ] | | w.w.w.| | ] ] ] ] ] ] ] ] ] | | w.w.w.| ] ] ] ] ] ] ] ] ",
"] ] ] ] ] ] ] ] ] w.w.w.w.w.w.w.| ] ] ] | | w.w.w.| | ] ] ] ] ] ] ] ] ] | | w.w.w.| ] ] ] ] ] ] ] ] ",
"] ] ] ] ] ] w.w.w.P P I I I P P w.w.w.w.w.w.P c c c c c | | ] | | w.w.w.w.w.P P P w.w.w.| ] ] ] ] ] ",
"] ] ] ] ] w.P P I I I I I I I I I I I c c c c F F F F F c c c w.w.P I I I I I I I I P P w.| | ] ] ] ",
"] ] ] ] ] w.P P I I I I I I I I I I I c c c c F F F F F c c c w.w.P I I I I I I I I P P w.| | ] ] ] ",
"] ] ] w.w.P I I I I I I I I I I c c c F F F F F F F F F F F F c c c I I I I U I I I I I P w.w.] ] ] ",
"] ] ] w.w.I I I I I I I I I I c D D F F F F F F F F F F F F F F F F c I I I I I I I I I I w.w.] ] ] ",
"] ] ] w.w.I I I I I I I I I I c D D F F F F F F         F F F F F F F c I I I I I I I I I w.w.] ] ] ",
"] ] ] w.w.P I I I I I I I I c D F F F F F         2         F F F F F F c c I I I I I I P w.w.] ] ] ",
"] ] ] w.w.P I I I I I I I I c D F F F F Y         2         F F F F F F c I I U U I I I P w.w.] ] ] ",
"] ] ] w.w.P I I I I I I I I c D F F F F   2 3 4 2 G G G 7 i   F F F F F c I I U U I I I P w.w.] ] ] ",
"] ] ] | | w.I I I I I c c c D F F F F   3 2 2 1 G G G G 7 i i     F F F F c c P P I I I w.| | ] ] ] ",
"] ] ] | | w.I I I I c D D F F F F F F   % X X X X X X X X X 4     F F F F F F c P I I I w.| | ] ] ] ",
"] ] ] ` ` w.P P I I c D A F F F F A   % 9 l z l l l z z z l q 6 6   F F F F F c I I I I w.| | ] ] ] ",
"] ] ] ` ` w.P P I I c D D F F F A h = # J 3.6.5.5.5.5.5.5.3.J O = :   F F F F F c I I I P w.w.] ] ] ",
"] ] ] ` ` w.P P I c D D D F F A X n ! E @.5.6.5.6.6.6.5.5.4.@.W ! B . A F F F F c I I I P w.w.] ] ] ",
"] ] ] ] ] | w.w.I c D F F F F c = ! 8.7.6.5.5.6.6.6.5.6.5.5.7.7.9.~ = x F F F F c I I I I w.w.] ] ] ",
"] ] ] ] ] | w.w.I c D F F F F   # W 7.5.5.6.5.6.6.6.6.6.6.6.5.5.7.W #   F F F F c I I I P w.w.] ] ] ",
"] ] ] ] ] | w.w.I c D F F F j = N +.7.5.5.6.6.6.6.5.6.6.6.5.6.5.7.+.N = j F F F c I I I P w.w.] ] ] ",
"] ] ] | | w.P P I c D F F F O 0 O.,.6.5.6.5.6.5.6.5.5.6.6.5.6.5.6.,.O.e O F F F c I I I P w.w.] ] ] ",
"] ] ] w.w.P I I I c D F F F X k 2.3.6.5.6.6.6.6.6.6.6.6.6.6.6.5.6.3.1.k X F F F c I I I w.| | ] ] ] ",
"] ] ] w.w.P I I I c D F F F X z 5.5.5.5.6.6.6.5.6.6.6.4.6.6.6.5.5.5.5.z . F F F c I I I w.| | ] ] ] ",
"] ] ] w.w.P I I c D D F F F X z 5.5.5.5.5.5.5.6.5.6.6.5.6.4.5.6.5.6.5.b X F F F F c I I w.` ` ] ] ] ",
"] ] ] w.w.P I I c D D F F F . j ,.3.6.6.@.E -.6.6.6.5.6.-.W @.6.6.3.<.k X F F F F c I I w.` ` ] ] ] ",
"] ] ] | | w.I I c D D F F F = h ..:.6.7.K =  .6.6.6.6.6. .= K 6.6.:...h . F F F F c I I w.` ` ] ] ] ",
"] ] ] ` ` w.P P c D D F F D   : k  .7.6.J =  .6.6.6.6.6. .= J 7.7. .k 8   F F F F c I I w.| | ] ] ] ",
"] ] ] ` ` w.P P c D D F F  .  % O Y 5.6.! k @.6.5.6.6.6.@.j ! 5.4.T X 7   F F F F c I I w.| | ] ] ] ",
"] ] ] ` ` w.P P c D A F F F   % @ H -.3.2.,.3.5.6.6.5.6.3.,.2.3.;.H = 8    .F F F c I I P w.w.] ] ] ",
"] ] ] ] ] | w.w.c D D F F F   * 4 r H #.3.6.6.5.6.6.6.5.5.6.3.#.C k ; u   D F F F c I I P w.w.] ] ] ",
"] ] ] ] ] | w.w.c D D F F F   1 y ; 0 ( ,.6.6.6.6.5.6.6.5.5.,.( 0 . 6 G   F F F F c I I P w.w.] ] ] ",
"] ] ] ] ] | w.w.c D D F F F   & : C &.,.4.6.6.6.6.6.6.6.5.5.4.,.( k % t   F F F F c I I w.| | ] ] ] ",
"] ] ] | | w.c c c D F F F F   % = ! 8.6.-. .<.6.6.5.5.6.6.5.=. .#.Z @ 7   F F F F c c c w.| | ] ] ] ",
"] ] ] | | w.c c D D F F F F   % # Q 7.7.L > X.6.6.6.6.5.6.3.S , ^ J = 8   F F F F F c c w.| | ] ] ] ",
"] ] ] w.w.P c c D D F F F     % = ! 6.:.V = X.6.6.6.5.5.6.3.V O e w 3 p       F F F c c P w.w.] ] ] ",
"] ] ] w.w.I c c D D F F     1 % # Q 3.$.M = X.6.6.5.5.5.6.3.C . o & 6 G G     F F F c c I w.w.] ] ] ",
"] ] ] w.w.I c c D D F F     1 % # H %.#.M # ..6.6.5.5.5.6.3.S o 1 6 7 G G     F F F c c I w.w.] ] ] ",
"] ] ] w.w.P c c D D F F     1 7 & m T Y m e O.3.1.1.1.5.6.3.V O 7 u 7 G G     F F F c c P w.w.] ] ] ",
"] ] ] w.w.P c c D F F F     2 i y & O o n ( #.( O.O.O.<.6.3.V + 7 i 7 G G     F F F c c P w.w.] ] ] ",
"] ] ] w.w.P c c D F F F     2 i u 4 % o n #.#.( m b N o.<.3.C @ 8 i 7 G G     F F F c c P w.w.] ] ] ",
"] ] ] | | w.c D D F F F     2 i i 7 6 + v ^ / H $ X @ T *.<.C @ 8 i 7 G G     F F D c c w.| | ] ] ] ",
"] ] ] | | w.c D D F F F     2 i i 7 7 6 5 , , , t 3 = R *.$.N + 8 i 7 G G     F  .D c c w.| | ] ] ] ",
"] ] ] ` ` | c D D F F F     2 i i 7 7 7 7 * + + a t ; m Z C r 3 y i 7 G G     F F F c x | ` ` ] ] ] ",
"] ] ] ` ` ` ] ] | w.w.w.w.w.w.w.| ] ] | q.0.0.q.w.{ [ < O = s g _ ` ] ] | | w.w.w.| ` ` ` ` ` ] ] ] ",
"] ] ] ` ` ` ] ] | w.w.w.w.w.w.w.| ] ] | w.w.w.w.w.| } ' d f g ` ` ` ] ] | | w.w.w.| ` ` ` ` ` ] ] ] ",
"] ] ] ] ] ` ` ` ` ` ` ` ` ` ` ` ` ` ` ` ` ` ` ` ` ` ` ` _ _ _ ` ` ` ` ` ` ` ` ` ` ` ` ` ` ] ] ] ] ] ",
"] ] ] ] ] ] ] ] ` ` ` ` ` ` ` ` ` ` ` ` ` ` ` ` ` ` ` ] ] ] ] ] ] ] ] ] ` ` ` ` ` ` ] ] ] ] ] ] ] ] ",
"] ] ] ] ] ] ] ] ` ` ` ` ` ` ` ` ` ` ` ` ` ` ` ` ` ` ` ] ] ] ] ] ] ] ] ] ` ` ` ` ` ` ] ] ] ] ] ] ] ] "
};
