/* XPM */
static char *_136d5aab0c94bea96b294688d9b217e9JvLCn88HNEdhF7E[] = {
/* columns rows colors chars-per-pixel */
"64 64 103 2 ",
"   c None",
".  c #0E1212",
"X  c #0F1313",
"o  c #0F1414",
"O  c #101313",
"+  c #101414",
"@  c #101515",
"#  c #111515",
"$  c #111616",
"%  c #121616",
"&  c #121716",
"*  c #121617",
"=  c #121717",
"-  c #131717",
";  c #131818",
":  c #141818",
">  c #141819",
",  c #141919",
"<  c #151919",
"1  c #14191A",
"2  c #141A1A",
"3  c #151A1A",
"4  c #151B1A",
"5  c #151A1B",
"6  c #151B1B",
"7  c #161A1A",
"8  c #161B1B",
"9  c #171B1B",
"0  c #161B1C",
"q  c #171B1C",
"w  c #161C1C",
"e  c #171C1C",
"r  c #171D1C",
"t  c #171C1D",
"y  c #171D1D",
"u  c #181C1D",
"i  c #181D1D",
"p  c #181D1E",
"a  c #181E1E",
"s  c #191E1E",
"d  c #191F1E",
"f  c #191E1F",
"g  c #191F1F",
"h  c #1A1F1F",
"j  c #191F20",
"k  c #1A1F20",
"l  c #1A2020",
"z  c #1B2020",
"x  c #1A2021",
"c  c #1B2021",
"v  c #1B2121",
"b  c #1B2122",
"n  c #1B2222",
"m  c #1C2122",
"M  c #1C2123",
"N  c #1C2222",
"B  c #1C2223",
"V  c #1D2223",
"C  c #1D2323",
"Z  c #1D2324",
"A  c #1E2324",
"S  c #1E2325",
"D  c #1D2425",
"F  c #1E2424",
"G  c #1E2425",
"H  c #1F2425",
"J  c #1E2426",
"K  c #1F2426",
"L  c #1E2526",
"P  c #1F2526",
"I  c #1F2527",
"U  c #1F2627",
"Y  c #202527",
"T  c #202627",
"R  c #202628",
"E  c #212728",
"W  c #212629",
"Q  c #212729",
"!  c #21272A",
"~  c #222829",
"^  c #22282A",
"/  c #22282B",
"(  c #23292B",
")  c #242A2B",
"_  c #23292C",
"`  c #23292D",
"'  c #242A2C",
"]  c #242A2D",
"[  c #252B2D",
"{  c #242A2E",
"}  c #252B2E",
"|  c #252B2F",
" . c #262C2E",
".. c #262C2F",
"X. c #262C30",
"o. c #272D30",
"O. c #272D31",
"+. c #282E31",
"@. c #282E32",
"#. c #292F32",
"$. c #292F33",
"%. c #2A3033",
"&. c #2A3034",
/* pixels */
"                                  + + +                                       + + + +                                           ",
"                        +       + + + + + +       + +                 +     + + + + + + +       + +                             ",
"                      + +     + + + + + + + +       +               + +   + + + + + + + +         +                             ",
"              + + +           + + + + + + +     + +       X X X             + + + + + + +   + +         + + +                   ",
"            + + + + +             + + +       + + +     + + o + + X           + + + +       + +       + + + + +                 ",
"          + + + + + + +     + + +               +     + h , , l e ;     X + +                       + + + + + + +     + + +     ",
"          + + + + + + +   + + + +       X X + + X X   X + + e l l , + + X X X X   X X + + + + +     + + + + + + +     + + +     ",
"            + + + + +       + + +     X X + e , + + ; X X X + , , + e e + + , , + X X X X X + + +     + + + + +         + +     ",
"                      + + + + +     X + + + , , + h l + o + + + + + ; + ; l l l , + + + + X X X X X             + + +           ",
"          + + + +   + + + X X X X X + , h , + X + , , + , h l l l h , + ; e e , , + h l h , + X X X X X + +     + + + +         ",
"        + + + + + + + X X X + o X + h l l l h + o + + + , l F N N N N l , X + + + , l l l l h + + , + X X +     + + +           ",
"        + + + +   X X X + ; h , + , N T F l e , , h l l h h N l Z E F h , , h h h , e l N Z N e + , ; X X                       ",
"      +         + X X + e N N h + + h ^ E l e l l l N F F l l l l l h h N F N F ^ T h l F F N h + + , , + X X + + +             ",
"    + + +       X X + + l E E , X X ; , h l E ^ N N Z F N l l e , ; h N E F l N ^ F l e 0 h e + X e N N e X X X + + +       +   ",
"    + + +     X X + e ; , N j + + + h l l N F E N F } X._ F l e 0 0 , h l N T ^ F l l , + + + X + h F Z h + X X + + +       + + ",
"              X X + , + + + + + e h l F E N N F T T ^ } X.E E ^ } } Z N F E } @.} F N h e l j ; + + h l l ; X X + +   + +       ",
"+ + + + +       X X + ; + X X , T F F } } T E E E _ } E E E } @.@.@.@..._ E E _ E F E F Z } ..E h + + ; ; X X X +               ",
"  + + + +   + + X X ; l h + + Z X.^ E ^ ^ E E E } @.@.} F F } @.&.&.%.@.@._ E E E E E E E } ..E l , X X + + + X X +       + + + ",
"      +       X X X , E F , + T } ^ ^ } ^ E E E ..@.@.X.E F E ^ ..@.@.@.X.^ E ^ } ^ E E E E E Z l h ; ; h h , X X +     + + + + ",
"                X + l _ I , + l F E } @.} E ^ ^ _ } _ ^ E ^ ^ E E ^ } _ ^ E E } @.@.^ E ^ ^ ^ E F l e j F N h + X X X       + + ",
"              X X , l N h e , h Z E ^ } ^ } ..@.@...^ E ^ ..X.} } E E ^ } _ E ^ } ..^ ^ X.@...E F l h l F N h ; + ; + X         ",
"            X + + , h e l N F Z F E E E E } @.@.@.} ^ ^ ..@.@.@.@.} E } X.} E E ^ ^ E ^ X.@.} E F N F l e l e + + ; + X         ",
"            + h ; X + h l F E E E E ^ } } _ ^ ^ ^ _ ^ ^ X.@.@.@.@.} E E ^ E ^ ..@.@.} ^ ^ ^ E E F Z } F , e + + + X X           ",
"      + X   ; e , + h l l F T E E _ @.@.@.@.} E ^ X.@._ } @.@.X.} ^ } } E ^ X.@.$.&.@.} E ^ } ^ E Z F N h + + h h +             ",
"        +       + + e h l N F E E } @.@.@.@.} E } } X.} E ^ ^ ^ E ^ @.X.^ ..@.&.@.@.@...^ X.@.X.F N N N l , + h e +             ",
"  + +         X , , + , N N E } } ^ } ..@.@._ } @...^ E ^ } } } } ^ } } ^ } @.@.@.@.@.} ^ @.@.X.E ) } } E 0 X + + X X           ",
"  + +       X + + + + h F F ..@.@.} E E ^ ^ ^ ..@.X.^ ^ X.@.&.&.@...^ E ^ ^ } } X.X...^ E } X._ } @.@.@.} e + , e + +           ",
"          X o , e + + h F Z } $.@.} E E _ } _ ^ } ^ E } @.@.&.@.@.@.} ^ X.@.X._ E E ^ } } } ^ E ^ @.@.@.^ , + h l l ; X X +     ",
"          X + e h h j e l l F } X.^ F ^ @.@.@.X.X...^ } @.@.@.@.@.@.} ^ @.@.@.X.^ E ..@.@.@.X.^ F E ^ E h + + , h e + X X +     ",
"            O + + h Z F Z l l Z F E F _ @.@.&.&.@.@...^ } ..@.@.@.} ^ E } ..@.X.^ ^ X.@.@.@.X.^ F N l h , , ; + + + X X X +     ",
"                + h N F F l e l F ^ ^ _ } X.@.@...} ^ ^ ^ ^ } } _ } ..X.} E _ ^ ^ ^ _ } @.X.^ E E F l h l N l , X + +           ",
"          X + + + h l N N e , Z } @.@.@...^ } } ^ E ^ ..@.@.@.X.^ X.&.@.@._ ^ X.@.@.} E ^ ^ } _ ^ E N F E F N e + + + X         ",
"  +     X X , h + h Z T Z , , F X.@.@.@.@...^ } } ^ ..@.@.&.@.X.^ } @.@...^ } @.@.@.@..._ X.@.@.} F Z E E E N l + X X           ",
"+ +     X X e , + + l T N e j F ^ X.@.@.X.} } @.} E _ X.X.X._ ^ _ } } ^ E E _ @.@.@.@.@.} @.@.@.@.F l F F Z l , + +             ",
"      +         X X + e l l l F E ^ } } _ ^ ^ } ^ } } ^ E E ^ X.@.@.@...^ E E } } } } } ^ } @.@.@.F l l e h , + , ,             ",
"    + + +       X X + e N F N N T E ^ X.X.X.^ E } @.@.} E ^ X.@.&.&.@.@.} E ^ ..X.^ _ X.} ^ ^ ..} Z N l ; + X X + + X       +   ",
"    + + +     X X + e l F E F Z E E ..@.@.@.} E ..@.X.^ E } @.@.@.@.@.@.} _ _ X.X.} X.@.X.^ E E E I E F h + + , , ; X       + + ",
"    +         X X + l N E E E } X.} ^ } X...^ ^ } } _ E E } X.@.%.@.@.} } @.} ^ ^ E _ X.} ^ E E } X.X.X.F , e l l e X X X       ",
"+ + + + +       o + e N E E ^ @.@.@._ E ^ E _ X.@.@.X.^ E _ } } } } _ E ^ } } } } E E E ^ ....} @.@.@.@.^ , , l h , + +         ",
"  + + + +   X + e + + e F F F } X._ ^ E E E ^ ..@.%.@.X._ @.@.} ^ } X._ E ^ X.@.@.} E E ^ X.} E } @...^ N , X + + + e + X X + + ",
"      +       + , + ; + h l l F E E E E E ^ } } } ...._ ^ } } ^ } @.@.} ^ } @.@.@.@.^ E ^ ^ E F T ^ E F h + + X X + + X X X + + ",
"              X + e l h h l l N F F E E E X.@.@.X.X.} ^ E E ^ E E _ } ^ ^ ^ } ..@.} ^ _ @.} ^ T N Z N l e h l , + , , o     + + ",
"              + + h l N N l l l l F E E ^ X.$.@.@.X.} ^ E ..X.} _ E ^ X.@.} E E ^ E E _ @.X.^ E Z h e e h l l , + , , +         ",
"            + X + h l F T h l l F E ^ ^ E E } } } ^ ^ E E ..@.@.} ^ ^ } @.} E E E E E E _ _ E E N e + , Z N h + X X X X         ",
"            + X X + l Z F 0 h F ^ X.@.X.^ E E ^ } @.X.^ E E ^ _ } X.@.} ^ E E E ^ ^ ^ ^ E E E E ^ l + e F Z ; X X X             ",
"      + +   + X X + e l h + , F ^ X.@.@.} E E } @.@.@.} E E } X.@.@.@.@.} E E E E ^ ^ E E E T } @.N + , N l + X X +             ",
"        +       X X + + + X + l F } X.} ^ E E E ^ } ..^ E E ..@.@.@.@.@.} E E ^ E E E E } } N E E , X + e , X X X +             ",
"  + +         + + X X + , + + + j F F E E N F T E E ^ } } E ^ } X.X.} _ E E } X.} T F E _ T l l h + o + X + + + +               ",
"  + +       + + + X + , l l e + + h l N N N Z F N F } @.X.^ N j l l 0 l N Z ^ X._ E Z N N l h ; + + h h + , , +                 ",
"          + + + + X X , l F Z , X + , h l N ^ ^ N F ^ } ^ E N , + ; h l Z N Z E ^ ^ F l h , + X + h F Z e + + X X     + +       ",
"          + + + + X X + h N N , + , e h l l l F N F E ^ } F l l h h h j F T N F } ^ l l F N , o ; l N N e X X X X     + + +     ",
"            + + + X X X + , , + + h Z E Z h , , h l F E F h l l F } E e 0 h l l l h e N ^ E l + + h h , + X X +       + + +     ",
"                      X X + , ; + , l N N l h + + ; ; ; , l F N F T F l , o + ; + , l l N N h + X + + X o         + +           ",
"          + + + +     X X X + e + X + + e e , X X X X X , l N l l l h e + + + + + ; l l l e ; X X X X X X +     + + + +         ",
"        + + + + +     + X X     + X X X X X + , , X X X + , , , , e h , + , l l , + + , ; + X X X + + + + +     + + +           ",
"        + + + +                 + + + X X X + h l + X X + e h ; + h l h + e l l l , X X   X X     + + + +                       ",
"                  + + + +               X X + + , + + X X + , + X , h , + , h l h + X X                     + + + +             ",
"                + + + + + +       +     + X X X X , ,     X X + + + + X X o + + + X X X       + + +       + + + + + +           ",
"              + + + + + + +       + +   + +     X ; ,       , h l , X X     X X X   + + +     + + +     + + + + + + +           ",
"              + + + + + +   + +         + +                 + , h , +     +           +                 + + + + + +             ",
"                  + +                         + + + +       X X + +                       + + + + +       + + +                 ",
"                                + + +         + + + + +   + +       X       + + +           + + + +     + +                     ",
"                              + + + + +           + +     + +     + + +   + + + + +             + +     +                       ",
"                                  + +                                         + + +                                             "
};
