/* XPM */
static char *out[] = {
/* columns rows colors chars-per-pixel */
"32 32 7 1 ",
"  c None",
". c #333790",
"X c #5633A8",
"o c #326DD9",
"O c #27ABFA",
"+ c #79C8FA",
"@ c #E7F3F3",
/* pixels */
"                                ",
"                                ",
"                                ",
"      O@@@+@@@@@@@@@@@@@@@      ",
"     O@ooOOOOOO++@+++++++@@     ",
"    O+ooOOOOOOO++@++++++++@@    ",
"   O@ooOOOOOOOO++@+++++++++@@   ",
"  OX@ooOOOOOOOO++@++++++++++@@  ",
" OOO@@+@@@@@@@@@@@@@@@@@@@@@@@@ ",
" OXX@ooOOOOOOOO++@++++++++++@@@ ",
" oXX+ooOOOOOOOO++@++++++++++@@@ ",
" oXX@ooOOOOOOOO++@++++++++++@@@ ",
" oXX@ooOOOOOOOO++@++++++++++@@@ ",
" OXX@ooOOOOOOOO++@++++++++++@@@ ",
" OOO@@@@++++++@@@@@@@@@@@@@@@@@ ",
"  O..OXXXXooOoOOO@OOOOOoooo@O@  ",
"   ..OXXooooooooO@ooOOOOOOO@@   ",
"    ..oXooooooooO@ooOOOOOO@@    ",
"     ..OXoooooooO@oOOOOOO@@     ",
"      ..oXooooooO@oOOOOO@@      ",
"       ..oXoooooO+oOOOO@+       ",
"        ..OXooooO+OOOO@@        ",
"         .oXXooo@oOOO@+         ",
"          .oXXoo@oOO@@          ",
"           .OXXO@oO@+           ",
"            .oXO+O@o            ",
"             .oO+@o             ",
"              .o@o              ",
"               .o               ",
"                                ",
"                                ",
"                                "
};
