/* XPM */
static char *out[] = {
/* columns rows colors chars-per-pixel */
"32 32 7 1 ",
"  c None",
". c #333790",
"X c #5633A8",
"o c #326DD9",
"O c #27ABFA",
"+ c #79C8FA",
"@ c #E7F3F3",
/* pixels */
"                                ",
"                                ",
"                                ",
"      o+++@@@@@@@@@@@@@@@@      ",
"     o+ooOOOO+@++++++++@@@@     ",
"    o+ooOOOO++@+++++++++@@@@    ",
"   o+ooOOOOO++@O+++++++++@@@@   ",
"  o+oooOOOOO++@O+++++++++@@@@@  ",
" o++++@@@@@@@@@@@@@@@@@@@@@@@@@ ",
" oX+ooOOOOOO++@O++++++++++@@@@@ ",
" oX+ooOOOOOO++@O++++++++++@@@@@ ",
" oX@ooOOOOOO++@O++++++++++@@@@@ ",
" oX@ooOOOOOO++@O++++++++++@@@@@ ",
" oX@ooOOOOOO++@O++++++++++@@@@@ ",
" .+@@@@++++@@@@@@@@@@@@@@@@@@@@ ",
"  ..OXXXXXXXoo@OOOOOOOOOoo@O@@  ",
"   .OXXXXXoooo@ooooooOOOOo@O@   ",
"    .oXXoooooo@oooooOOOOO@O@    ",
"     .oXXooooo@oooooOOOo@O@     ",
"      .oXXoooo@ooooOOOO@O@      ",
"       .oXXooo+ooooOOO@O@       ",
"        .oXXoo+oooOOO@O+        ",
"         .oXXoo@ooOOo@@         ",
"          .oXXo@oOOO@+          ",
"           .oXX@oOo@@           ",
"            .oX+OO@+            ",
"             .o+O@o             ",
"              .o@o              ",
"               .o               ",
"                                ",
"                                ",
"                                "
};
