/* XPM */
static char *out[] = {
/* columns rows colors chars-per-pixel */
"32 32 7 1 ",
"  c None",
". c #333790",
"X c #5633A8",
"o c #326DD9",
"O c #27ABFA",
"+ c #79C8FA",
"@ c #E7F3F3",
/* pixels */
"                                ",
"                                ",
"                                ",
"       ++++@@@@@@@@@@@@@@       ",
"      +XXoo+@OO+++++++@@@@      ",
"     OXXoo++@OO++++++++@@@@     ",
"    +XXooo++@OO++++++++@@@@@    ",
"   +XXoooo++@OO+++++++++@@@@@   ",
"  +++OOOO@@@@@@@@@@@@@@@@@@@@@  ",
"  +XXooooo++@oOOOOOOOO+++@@@@@  ",
"  OXXooooo++@oOOOOOOOO+++@@@@@  ",
"  OXXooooo++@oOOOOOOOO+++@@@@@  ",
"  OXXooooo++@oOOOOOOOO+++@@@@@  ",
"  +XXooooo++@oOOOOOOOO+++@@@@@  ",
"  ++++OOOO@@@@@@++++++@@@@@@@@  ",
"   OXXXXXXXX@OOOOOOOOOOOO@OO@   ",
"   .OXXooooX+XoooooooOOOO@OO@   ",
"    .oXXooooOXXooooooOOO@OO@    ",
"     .oXXoooX@XoooooOOO@OO+     ",
"      .oXoooo+XoooooOO+OO@      ",
"       .oXoooOXXoooOOO@O@       ",
"        .oXooX@XoooOO@O@        ",
"         .oXoo@XooOO@O+         ",
"          .oXo+XooO+O@          ",
"           .oXOXoOO@@           ",
"            .oX@XO@+            ",
"             .oOX+o             ",
"              .o@o              ",
"               .o               ",
"                                ",
"                                ",
"                                "
};
