/* XPM */
static char *out[] = {
/* columns rows colors chars-per-pixel */
"32 32 7 1 ",
"  c None",
". c #333790",
"X c #5633A8",
"o c #326DD9",
"O c #27ABFA",
"+ c #79C8FA",
"@ c #E7F3F3",
/* pixels */
"                                ",
"                                ",
"                                ",
"      ++O@@@@@@@@@@@@@@@@@      ",
"     +XXo+@OO+++++++@@++@@@     ",
"    OXXoo+@OO+++++++@@+++@@@    ",
"   OXXoo+@OO+++++++++@@+++@@@   ",
"  +XXooo+@OO+++++++++@@++++@@@  ",
" +++OOOO@@@@@@@@@@@@@@@@@@@@@@@ ",
" +XXooo++@ooOOOOOOOO++@+++++@@@ ",
" OXXooo++@ooOOOOOOOO++@+++++@@@ ",
" OXXooo++@ooOOOOOOOO++@+++++@@@ ",
" OXXooo++@ooOOOOOOOO++@+++++@@@ ",
" +XXooo++@ooOOOOOOOO++@+++++@@@ ",
" +++OOOO@@@++++++++++@@@@+++@@@ ",
"  +XXXXXX@OOOOOOOOOOOO@oooooo@  ",
"   .XXoooXOXXXooooOOO@oooOOO@   ",
"    .Xoooo@XXXooooOOO@ooOOO@    ",
"     .XoooXOXXooooOO@ooOOO+     ",
"      .Xooo@XXooooOO@oOOO@      ",
"       .XooXOXXooOO+ooOO@       ",
"        .Xoo@XXooOO@oOO+        ",
"         .XoXOXooO+oOO@         ",
"          .Xo+XXOO@oO+          ",
"           .XXOXO+oOo           ",
"            .X+XO@O+            ",
"             .XO+Oo             ",
"              .+@o              ",
"               .o               ",
"                                ",
"                                ",
"                                "
};
