/* XPM */
static char *e85932fce645439ba90f2b4055c90245ofhWjvRMW3nEgpK7[] = {
/* columns rows colors chars-per-pixel */
"64 64 199 2 ",
"   c None",
".  c #030404",
"X  c #040708",
"o  c #060909",
"O  c #0B0C0D",
"+  c #080607",
"@  c #120C0E",
"#  c #1A0C0E",
"$  c #0C100F",
"%  c #0F0E10",
"&  c #130E12",
"*  c #0E1212",
"=  c #121315",
"-  c #181116",
";  c #151618",
":  c #1C151A",
">  c #16181A",
",  c #1B1A1D",
"<  c #23161B",
"1  c #2B161A",
"2  c #23191E",
"3  c #2D1014",
"4  c #36191D",
"5  c #371619",
"6  c #1E1C20",
"7  c #231D23",
"8  c #2A1D24",
"9  c #2E1F28",
"0  c #391E23",
"q  c #371F27",
"w  c #252026",
"e  c #292127",
"r  c #252229",
"t  c #2C242C",
"y  c #3C2025",
"u  c #33252D",
"i  c #372128",
"p  c #2F2730",
"a  c #312730",
"s  c #352932",
"d  c #3B2B35",
"f  c #3D2D39",
"g  c #382630",
"h  c #501F23",
"j  c #4B2429",
"k  c #42282F",
"l  c #5C2226",
"z  c #53272B",
"x  c #5F262B",
"c  c #5C2B2F",
"v  c #432B34",
"b  c #4B2C34",
"n  c #402E3A",
"m  c #4C2E39",
"M  c #532C34",
"N  c #5B2E36",
"B  c #502F39",
"V  c #45313D",
"C  c #4A323E",
"Z  c #52323D",
"A  c #5B323C",
"S  c #63333D",
"D  c #6C333C",
"F  c #73333B",
"G  c #7B353C",
"H  c #743136",
"J  c #6A272C",
"K  c #4C3442",
"L  c #523644",
"P  c #5B3643",
"I  c #5C3846",
"U  c #543847",
"Y  c #643542",
"T  c #643946",
"R  c #6B3A46",
"E  c #723A45",
"W  c #7C3B45",
"Q  c #7B3C48",
"!  c #723944",
"~  c #80373F",
"^  c #823A3D",
"/  c #843237",
"(  c #903F3E",
")  c #D73E3F",
"_  c #DB3C3E",
"`  c #E43C3C",
"'  c #E83F3C",
"]  c #B54A3C",
"[  c #DD413F",
"{  c #DE493F",
"}  c #DA503F",
"|  c #E6423C",
" . c #EB433D",
".. c #E4493D",
"X. c #EC4B3C",
"o. c #F1473E",
"O. c #F34A3F",
"+. c #ED543C",
"@. c #ED5C3D",
"#. c #E4523D",
"$. c #F3533D",
"%. c #F8543F",
"&. c #F35B3B",
"*. c #FF5E3F",
"=. c #EA6C3E",
"-. c #E9663F",
";. c #F4623B",
":. c #FF643E",
">. c #F56A3C",
",. c #FE6C3C",
"<. c #F5733D",
"1. c #FF743B",
"2. c #FF7B3A",
"3. c #843C46",
"4. c #8A3C45",
"5. c #833D48",
"6. c #8B3E48",
"7. c #933D46",
"8. c #9C3E46",
"9. c #963F48",
"0. c #933E48",
"q. c #9A3F48",
"w. c #9B3F49",
"e. c #A53E44",
"r. c #AD3F46",
"t. c #A13F48",
"y. c #A83F49",
"u. c #B33E44",
"i. c #BD3F45",
"p. c #B33F48",
"a. c #C43F44",
"s. c #CB3E42",
"d. c #D33E40",
"f. c #D93F41",
"g. c #8E4146",
"h. c #9D4049",
"j. c #974147",
"k. c #A14247",
"l. c #AC4A44",
"z. c #A4414A",
"x. c #AA4149",
"c. c #AD424A",
"v. c #AE424A",
"b. c #AD4149",
"n. c #AD424A",
"m. c #B54147",
"M. c #BA4047",
"N. c #BC4046",
"B. c #BC4B45",
"V. c #B14149",
"C. c #B34249",
"Z. c #BC4449",
"A. c #B95F48",
"S. c #C34647",
"D. c #CB4544",
"F. c #C24E45",
"G. c #DA4140",
"H. c #DC4C44",
"J. c #D44842",
"K. c #C65343",
"L. c #CC5643",
"P. c #D95643",
"I. c #D75F42",
"U. c #E44C44",
"Y. c #EC4C42",
"T. c #F64C40",
"R. c #F94E40",
"E. c #EB5442",
"W. c #E65741",
"Q. c #F35442",
"!. c #FF5442",
"~. c #F35B42",
"^. c #FF5A40",
"/. c #C96D49",
"(. c #D86143",
"). c #D97047",
"_. c #EF6941",
"`. c #EF6341",
"'. c #FF6343",
"]. c #FF6C43",
"[. c #F36642",
"{. c #F57143",
"}. c #FE7344",
"|. c #F57942",
" X c #FE7D44",
".X c #EA7447",
"XX c #FF833D",
"oX c #FF8A3F",
"OX c #F68444",
"+X c #FE8243",
"@X c #FE8B42",
"#X c #F78B46",
"$X c #FE9443",
"%X c #FF9A45",
"&X c #FF9C48",
"*X c #F79E49",
"=X c #FFA347",
"-X c #FFA448",
";X c #FFAA49",
/* pixels */
"                                                              * * * O .                                                         ",
"                                                          = O o , , > > : &                                                     ",
"                              * 7 u > . o =           O X X + u K a t g V a 7 = ; 7 = 2 O X X . O                               ",
"                            * & S E f , 6 7 ; = = X . X . = i Q L V g K K K C r f L f n t 7 d - X *                             ",
"                          * . 1 x.E K t t f t u v r 7 7 w r b x.E I P L L I W t V L K K g K C r 7 O > ,                         ",
"                        * X O P v.6.L f I E K A W K d n d v T v.6.h.h.T K E 0.L L U T L f Q W t V r s L t                       ",
"                    * * . O r T v.v.T I 9.v.T 6.W K L L d 4.0.v.v.v.v.q.5.x.0.L L T h.T U x.6.V V t V L C ;                     ",
"                  z B d t u a Y v.v.9.q.v.v.q.V.5.L L L K 7.V.v.v.v.v.V.V.V.x.E W q.v.z.9.v.6.L W C E R 7 o                     ",
"                6 W Q T 3.P P w.v.V.m.m.m.m.V.v.x.E L I U 9.v.V.m.V.i._ _ ) M.V.v.v.M._ _ M.6.3.w.R x.N o O                     ",
"              O - 5.x.R x.x.m.N.N.d.` ` _ s.V.v.v.x.W x.4.q.V.s.| X.|  .X.` _ d.M.M.N.d._ s.x.x.R Q V.N O . O *                 ",
"              O u 5.v.6.v.v.a.d.` ` ` ` ) a.a.a.a.s.a.v.v.v.V.d. .$.O.O.$.| _ a.m.s.` ` s.a.s.M.6.x.V.N w O . X o               ",
"            * O L T h.V.v.a.d.d.` ` ` ` ` ` ` ` d.a.i.v.a.d.d._ ` ` ' O.O.O.;.;.E.d.` ` ` ` _ m.V.V.9.v d t u 7 = o             ",
"          * X # 3.L 0.V.V.M._ ` ` &.1.>.| | ` ` _ _ _ _ `  .>.:.R.R.!.!.!.!.^.^.!.R.*.1.1.>.>.} d.V.5.a V L I s r ;             ",
"          o O i v.3.q.a.` ` ` ' T.&.>.OX<.;.| ` ` ` O.T.R.!.!.!.!.*.1.^.!.!.!.!.!.!.^.>.|.| ) N.N.q.U f K R Q p K d             ",
"          = v g ^ v.v.s.s._ ` ` `  .`._._.@.X. .E._.+.+.%.!.!.!.!.:.1.:.!.!.!.!.!.!.!.[._._.;.X.` x.T K L 6.D a K a ;           ",
"          7 U f d 0.V.s.s._ ` O.O.!.}.;X$X].^.,.2.$X2.2.:.!.!.!.!.!.*.!.!.!.,.,.^.!.!.'.&X=X}.^. .s.z.4.6.v.W K ! t ,           ",
"        o 8 I L K 3.d.` +.>.#X&X X!.!.'.^.!.,.2.2.2.2.2.:.!.!.].].!.!.!.!.,.2.oX%X@X!.!.'.'.!.:.>.` _ d.m.v.3.3.7.d 2 o         ",
"      O = a 3.R E i._ | >.>.#X$X|.R.!.!.!.!.,.2.1.:.,.,.!.!.!.!.!.!.!.!.,.2.2.$X;X&X!.!.!.!.!.:.1.X.' s.M.M.V.w.Z f 9 . *       ",
"  O o 4 C t ~ v.m.a.a._ ` ` ` +.X. .!.!.!.!.!.,.:.!.!.!.!.!.!.!.^.:.!.!.,.XX2.oX%X@X!.!.!.!.!.!.:.:.T. .` _ N.R f P T 8 o       ",
"* . : 7.Q Y 8.v.m.) o.{.|.>.;.1.*.!.!.!.!.!.!.!.!.!.!.,.,.,.:.!.,.2.!.!. X-X@X2.2.:.!.!.!.!.!.!.!.!.o.o.` _ s.8.I 0.W f 8       ",
"O . 7 R x.u.G.G.U.T.!.}.%X2.2.*.!.!.,.1.:.!.!.!.!.!.1.$X2.2.2.,.^.*.!.!.'.$XXX2.:.!.!.:.,.;. . . . .` ` a.N.a.m.h.9.C t n =     ",
"O O t u 7.D.OX1.!.!.!.!.^.^.*.!.:.1.2.2.2.1.^.!.:.2.%X;XoX2.XX=X+X^.!.!.!.^.^.*.!.^.1.;.X.X.| | ` | | | .._ ) M.z.Z n V d =     ",
"o & d s m A.OX2.!.!.!.!.!.,.2.^.,.2.2.2.2.2.:.!.:.2.XX@X2.1.1.@XXX*.!.!.!.!.*.2.:.:.2.2.2.2.2.,.!.^.2.2.@X+.H.D.x.K d 7 =       ",
"  o 6 d K T u.+.O.*.^.!.!.*.:.^.:.:.,.2.2.2.1.!.:.2.,.,.1.^.:.*.*.^.^.*.!.!.^.:.^.:.:.:.1.2.2.2.^.^.2.,.,.1.*.U.W 2 *           ",
"    t C L K 0.Y.R.^.!.!.!.!.!.!.!.!.!.:.2.2.1.!.:.,.!.!.^.,.2.1.*.!.!.^.!.!.!.!.!.!.!.!.*.2.2.2.^.^.,.!.!.^.:.B.1 O             ",
"    > G 0.U 7.G.'  . .!.^.!.!.!.!.!.!.'.oX2.*.!.!.!.!.!.!.,.2.2.:.!.!.!.^.^.!.!.!.!.!.!.^.@X2.:.!.!.!.!.!.!.J.E O               ",
"  = o m h.6.9.a.` %.1.2.2.,.!.!.,.,.!.^.2.,.^.!.!.!.!.!.^.!.,.:.!.!.!.,.2.2.1.^.!.:.1.^.!.1.1.*.!.!.!.!.!.U.3.d O               ",
"  $ % g R v.v.a.D.W.;.2.oX2.^.!.1.1.!.^.*.!.!.!.!.!.!.,.,.^.].!.!.!.*.2.2.oX2.:.!.,.1.^.!.:.!.!.O.O.O.O.o.d.5.= O               ",
"  o > t v 6.V.s.s._ ` +.@.+.X. .X.X.!.:.!.!.!.!.!.:.,.,.2.@X=X}.!.!.*.2.2.oX$X:.:.,.^.!.:.!.!.!.T.O.$.X.` d.5.- O *             ",
"  . t C t D m.a.` ` | | | _.'.>.*.R.!.^.!.!.!.!.!.,.1.:.2.XX%X1.!.^.1.2.2.$X;X}.,.1.!.!.^.!.!.!.!.!.:.1.%.| N.4 X X *           ",
"    u V V E a...X.>.1.,.2.}.!.!.!.!.,.^.!.!.!.^.!.!.!.*.2.2.2.2.2.2.XX1.1.2.+X!.!.!.!.:.:.!.!.!.^.^.!.!.!.;.P.Y n & O *         ",
"    = u f K j.<.XX+X^.!.!.!.!.!.^.:.1.1.!.!.:.2.,.!.!.!.*.1.2.2.2.2.@X:.!.!.!.!.!.!.:.,.2.^.!.^.1.1.^.T.` ` r.v f L g O         ",
"      t Y R R K.+.%.!.!.^.,.,.^.2.$X2.:.!.!.1.2.2.*.!.^.,.1.2.2.2.2.:.!.!.!.,.,.^.,.$XXX,.!.!.,.2.2.,.T.O.W.! t f T M O *       ",
"        j t.9.p.` ` X.@X@X2.2.1.oX;X].!.!.!.*.2.,.!.!.:.2.2.2.2.2.:.!.}.$X$X2.2.1.XX;X X!.!.!.^.1.1.^.!.^.=.3.V I z.h . X       ",
"          z v.m._ ' OX;X%X2.2.2.2.1.^.^.^.^.!.!.!.!.^.1.2.2.2.2.2.1.!. X;X=X2.2.2.2.2.:.^.^.^.!.!.!.R.!.;.>.L.Q h.7.g d @ .     ",
"          = S 6.S.!. X%X@X2.2.2.,.!.:.2.2.1.!.!.^.^.^.2.2.2.1.:.:.1.!.].$X$X2.2.2.1.!.^.;.;.;.$.` ` ` ` ` d.N.x.v.~ t Y C =     ",
"        o : p L S.!.!.:.2.2.oX2.*.:.2.2.2.:.!.!.^.^.!.,.2.@X@X:.*.:.!.!.*.1.2.XXXX:.^.1.;.&.$.o.O. .` ` ` s.s.s.s.4.V 0.P 7     ",
"      O & m K P S.!.!.!.,.2.XX^.!.,.2.2.2.1.^.!.!.!.!.:.2.%X&X1.1.^.!.!.!.:.1.XX,.!.:.2.2.2.2.:.!.!.T.T.%.;.<.+.a.x.9.t.d u e   ",
"    * . 4 Q K I i.O.!.!.!.^.!.!.!.,.2.XX2.2.1.,.!.!.!.!.^.1.2.,.!.!.!.!.!.!.^.^.!.!.:.2.2.XX2.2.>.!.R.!.R.| { [ s.v.v.8.u d r   ",
"      o Y 0.P E D.&.^.!.!.!.!.!.!.:.XX;X%X2.2.:.'.].'.^.!.!.!.!.!.:.1.^.!.!.!.!.!.!.^.2.&X=XXX2.$.X.X.` ` _ i.i.a.N.m.S d n t > ",
"        M V.0.v.&.1.^.!.!.!.!.!.!.!.$X;X;XoX:.!. X;XXX1.^.!.!.!.!.:.1.*.!.!.!.!.!.!.!.+X;X;X$X,.!.].$X;.&.$.o.o.` _ M.A K d C 7 ",
"        < H V.s.X.%.!.!.*.,.,.^.!.!.].=X@X'.^.,.2.oX2.2.:.!.!.!.!.!.^.!.!.^.,.,.^.!.!.'.%X&X].^.:.1.oXXX2.1.!.!.R.T.S.R P ! g   ",
"    * O X c V.N.i.N.[ | &.2.%X&X X!.!.'.^.!.1.2.2.1.2.2.:.!.!.].].!.!.!.!.1.2.@X&X@X!.!.^.^.!.:.2.2.2.2.2.,.!.!.^..X4.I h.3.w   ",
"  * X o 7 Q V.s.` ` ` ;.>.>.OX#X{.T.!.!.!.!.,.2.1.*.,.:.!.!.!.!.!.!.!.!.,.2.2.$X;X&X!.!.!.!.!.:.2.2.:.:.,.!.!. .` G.6.9.6.u     ",
"* X & w d 8.a.s.` ` ` ` ` ` +.&.+.o.!.!.!.!.!.,.*.!.!.!.!.!.!.!.*.:.!.!.,.oX2.XX$X@X!.!.!.!.!.!.:.:.!.!.!.!.T. .` a.v.x.v ,     ",
"O & C n b M.a._ `  .T.|.OX>.1.1.^.!.!.!.!.!.!.!.!.!.^.,.,.,.:.!.,.2.!.!. X-X@X2.2.:.!.!.!.!.!.!.!.!.!.!.,.,.,.,.[ v.6.A w *     ",
"O < L U R v.s. .R.!.!.}.$X2.1.^.!.!.,.1.:.!.!.!.!.^.2.$X2.2.2.,.^.^.!.!.'.$XXX1.:.!.!.:.1.,.!.!.!.!.!.,.$X2.1.+.u.T U K f =     ",
"= o u 6.x.S.) @.!.!.!.!.^.^.*.!.:.2.2.2.2.1.^.!.:.2.%X;XoX2.XX;X@X^.!.!.!.^.^.*.!.^.1.2.2.2.2.:.!.^.1.|.OX| ` ` y.P T P f       ",
"  O < L 3.q.N.s.`  .O.!.!.,.2.^.,.2.2.2.2.2.:.!.:.2.XXoX2.,.,.+X2.*.!.!.!.!.*.2.:.:.2.2.2.2.2.,.!.^.>.+.+.+.O.G.x.6.w.P =       ",
"    O 8 K Q d.o.O.$.$.!.!.^.:.^.:.:.:.2.2.2.1.!.:.2.:.,.,.^.:.*.^.!.^.:.!.!.^.:.^.:.:.:.1.2.2.2.^.^.2.,.,.1.W.m.v.h.T u         ",
"        , v e.Q.!.^.!.!.!.!.!.!.!.!.!.:.2.2.1.!.:.:.!.!.^.,.2.2.*.!.!.^.!.!.!.!.!.!.!.!.^.2.2.2.^.^.,.!.!.Q.7.B b P g           ",
"          * F E.!.!.^.^.^.!.!.!.!.!.!.'.oX2.^.!.!.!.!.!.!.,.2.2.:.!.!.!.^.^.^.!.!.!.^.!.^.@X2.:.!.!.!.!.!.Y.5.f 7 >             ",
"            u 7.U.~.1.2.2.,.!.!.,.,.!.*.1.,.!.!.!.!.!.^.^.!.,.:.!.!.!.,.2.2.1.^.!.:.1.^.!.1.,.*.!.!.O.O.O.U.F = *               ",
"              t N l.I.2.oX2.^.!.,.,.!.^.^.!.!.!.!.!.!.,.1.^.}.!.!.!.*.2.2.oX2.,.!.:.1.^.!.:.!.!.!.!.O. .` G.l .                 ",
"                > 1 5 ] +.;.*.,.,.!.!.:.!.!.!.!.!.:.,.,.2.@X=X}.!.!.*.2.2.oX$X,.:.,.^.!.:.!.!.!.!.R. .` ` r.q . O               ",
"                    . 3 a.` | 1.,.!.^.!.!.!.!.!.!.,.1.:.2.XX%X1.^.^.1.2.2.$X;X}.,.1.!.!.^.!. . .' ` ` ` _ 9.K - * =             ",
"                    * # e.| R.!.!.!.1.:.!.!.!.*.^.!.!.^.1.2.2.2.2.2.XX1.,.1. X!.!.!.!.:.:.!.!.!.X.X. .[ Z.z.P , *               ",
"                  = O 8 E H.!.O.o.o.&.&.O.O.:.2.1.^.!.!.*.1.2.2.=.(.).P.H.Y.o.R.!.!.:.1.2.^.!.*.2.<.H.k.x x y *                 ",
"                  * * C I k.;.%.<.OX..` d.N.K.K.-.:.!.R. .X.#.L.^ Y Y M Y u.| >.^.,.$XoX:.!.!.,.I.F.0.i . o *                   ",
"                    = 7 f u ( F.OX*X~.U.m.x.T P g.S.[ ` s.p.y.Z 7 % o = r A e.l.C.l./.|.!.Y.Z.B.Q w.W = O =                     ",
"                        = = 7 v j.x.V./ / M 7 a 5.z.h.x.x.V.G 2 . X * o O ; = 2 C s R c.x.h.h.v.T K 8 . * =                     ",
"                              r L 6.J X X . . > j y q j j l + o O =         = o O > 8 j k u T 6.I r % O =                       ",
"                                e 0 @           . o o o o o O                 O . . o       : : : O O =                         ",
"                                                                                              o O O                             "
};
