/* XPM */
static char *result[] = {
/* columns rows colors chars-per-pixel */
"50 50 7 1 ",
"  c #1E7CB8",
". c white",
"X c #5AAEE4",
"o c #328E41",
"O c #3ABE41",
"+ c #6ADD4B",
"@ c #165C88",
/* pixels */
"                                                  ",
"                                                  ",
"                                                  ",
"         .......X   XX...XX         XX...X        ",
"         .......X   XX...XX         XX...X        ",
"      ...ooOOOoo......ooo...XX XX.....ooo...X     ",
"     .ooOOOOOOOOOOOOOOOOOOOo.....oOOOOOOOOoo.XX   ",
"     .ooOOOOOOOOOOOOOOOOOOOo.....oOOOOOOOOoo.XX   ",
"   ..oOOOOOOOOOOOOOOOOOOOOOOOOOOOOOOOO+OOOOOo..   ",
"   ..OOOOOOOOOOOOOOOOOOOOOOOOOOOOOOOOOOOOOOOO..   ",
"   ..OOOOOOOOOOOOOOOOOOOOOOOOOOOOOOOOOOOOOOOO..   ",
"   ..oOOOOOOOOOOOOOO++OOOOOOOOOOOOOOOOOOOOOOo..   ",
"   ..oOOOOOOOOOOOOOOOOOOOOOOOOOOOOOOOOO++OOOo..   ",
"   ..oOOOOOOOOOOOOOOOOOOOOOOOOOOOOOOOOO++OOOo..   ",
"   XX.OOOOOOOOOOOOOOOOOOOOOOOOOOOOOOOO+ooOOO.XX   ",
"   XX.OOOOOOOOOOOOOOOOOOOOOOOOOOOOOOOO+ooOOO.XX   ",
"   @@.ooOOOOOOOOOOOOOOOOOOOOOOOOOO++OO+OOOOO.XX   ",
"   @@.ooOOOOOOOOO++OOOOOOOOOOOOOOOooOOoOOOOOo..   ",
"   @@.ooOOOOOOOOO++OOOOOOOOOOOOOOOooOOoOOOOOo..   ",
"     X..OOOOOOOOO++OOOOOOOOOOOOOOOOOOOOOOOOOO..   ",
"     X..OOOOOOOOOooOOOOOOOOOOOOOOOOOOOOOOOOOo..   ",
"     X..OOOOOOOOOooOOOOOOOOOOOOOOOOOOOOOOOOOo..   ",
"   XX.ooOOOOOOOOOOOOOOOOOOOOOOO++OOOOOOOOOOOo..   ",
"   ..oOOOOOOOOOOOOOOOOOOOOOOOOOOOOOOOOOOOOOO.XX   ",
"   ..oOOOOOOOOOOOOOOOOOOOOOOOOOOOOOOOOOOOOOO.XX   ",
"   ..oOOOOOOOOOOOOOOOOOOOOOOOOOOOOOOOOOOOOOO.@@   ",
"   ..oOOOOOOOOOOOOOOOOOOOOOOOOOOOOOOOOOOOOOO.@@   ",
"   XX.OOOOOOOOOOOOOOOOOOOOOOOOOOOOOOOOOOOOOO.@@   ",
"   @@.ooOOOOOOOOOOOOOOOOOOOO++OOOOOOOOOOOOOO.XX   ",
"   @@.ooOOOOOOOOOOOOOOOOOOOO++OOOOOOOOOOOOOO.XX   ",
"   @@.ooOOOOOOOOOOOOOOOOO++O+++OO+OOOOOOOOOOo..   ",
"     X..OOOOOOOOOOOOOOOOO+++++++++OOOOOOOOOOo..   ",
"     X..OOOOOOOOOOOOOOOOO+++++++++OOOOOOOOOOo..   ",
"     X..OOOOOOOOOOOOOOOOOoo+oo+++oOOOOOOOOOO.XX   ",
"   XX.ooOOOOOOOOOOOOOOOOOOOooooooOOOOOOOOOOO.XX   ",
"   XX.ooOOOOOOOOOOOOOOOOOOOooooooOOOOOOOOOOO.XX   ",
"   ..oOOOOOOOOOOOOOOOOOOOOOOOOOOOOOOOOOOOOOOo..   ",
"   ..OOOOOO++OOOOOOOOOOOOOOOOOOOOOOOOOOOOOOOO..   ",
"   ..OOOOOO++OOOOOOOOOOOOOOOOOOOOOOOOOOOOOOOO..   ",
"   ..oOO+OO++OOOOOOOOOOOOOO+oooooOOOOOOOOOOOo..   ",
"   ..oOO+OO++OOOOOOOOOOOOOO+oooooOOOOOOOOOOOo..   ",
"   ..ooooOOooOOOoooo++OOOoooooooooooooOOOoooo..   ",
"   XX.oooooooooooooooooooooo.....ooooooooooo.XX   ",
"   XX.oooooooooooooooooooooo.....ooooooooooo.XX   ",
"   @@X...ooooooo....ooooo...XX XX.....ooo...X@@   ",
"   @@@  X.......X  X.....XX @@@@@@  XX...X@@@@@   ",
"   @@@  X.......X  X.....XX @@@@@@  XX...X@@@@@   ",
"     @@@@@@@@@@@@@@@@@@@@@@@@@@@@@@@@@@@@@@@@     ",
"        @@@@@@@@@@@@@@@@@@@         @@@@@@        ",
"        @@@@@@@@@@@@@@@@@@@         @@@@@@        "
};
