/* XPM */
static char *result[] = {
/* columns rows colors chars-per-pixel */
"50 50 207 2 ",
"   c #1E7CB8",
".  c white",
"X  c #5AAEE4",
"o  c #328E41",
"O  c #3ABE41",
"+  c #CAAA4C",
"@  c #D2C557",
"#  c #E8CE93",
"$  c #CDA637",
"%  c #D1B31E",
"&  c #E2CD2B",
"*  c #DCC22C",
"=  c #F0D367",
"-  c #CFB225",
";  c #FCFF5B",
":  c #FEFFFE",
">  c #FCFF63",
",  c #E8CA46",
"<  c #FEFE9C",
"1  c #FEFFBA",
"2  c #E6D433",
"3  c #ECD969",
"4  c #6ADD4B",
"5  c #F3DA68",
"6  c #E8C82A",
"7  c #D4B929",
"8  c #FFFFE5",
"9  c #EDE53C",
"0  c #E8D297",
"q  c #F2D777",
"w  c #EFCA30",
"e  c #D9AF22",
"r  c #F0E636",
"t  c #EEC92A",
"y  c #CB9917",
"u  c #FFFF75",
"i  c #FEFD44",
"p  c #EAE134",
"a  c #EBC32B",
"s  c #C6A31C",
"d  c #FFFF83",
"f  c #FBFE53",
"g  c #F2EB3B",
"h  c #F0C72C",
"j  c #C7A523",
"k  c #CFB628",
"l  c #FFFE8B",
"z  c #FDFD4C",
"x  c #ECE146",
"c  c #F7FF53",
"v  c #EFEB3A",
"b  c #E9E257",
"n  c #D1B322",
"m  c #D7C32B",
"M  c #FEFF6B",
"N  c #F5FF61",
"B  c #E6D936",
"V  c #165C88",
"C  c #F1CD39",
"Z  c #E9BE2B",
"A  c #FFFFA9",
"S  c #F4F03D",
"D  c #E5D42E",
"F  c #DAC82C",
"G  c #DCC425",
"H  c #D1AB1D",
"J  c #DAB769",
"K  c #F1DA55",
"L  c #C4960D",
"P  c #C9A41C",
"I  c #FFFFD8",
"U  c #FEFF95",
"Y  c #F6FF5C",
"T  c #F1E693",
"R  c #E9C446",
"E  c #AF870F",
"W  c #CDAB1C",
"Q  c #FEFEFB",
"!  c #FEEB3B",
"~  c #FAE684",
"^  c #E4BE4A",
"/  c #BF900E",
"(  c #C08F05",
")  c #CF960E",
"_  c #FEFEC8",
"`  c #FEFD3F",
"'  c #FDF43C",
"]  c #FEE936",
"[  c #E3C284",
"{  c #ECDE2D",
"}  c #242109",
"|  c #3D3421",
" . c #FBE434",
".. c #D8A735",
"X. c #FEFFA6",
"o. c #FFFFF3",
"O. c #282012",
"+. c #362B18",
"@. c #9D9576",
"#. c #FEF82D",
"$. c #F5DC31",
"%. c #F3D32A",
"&. c #EDC323",
"*. c #FFFF7C",
"=. c #594829",
"-. c #706343",
";. c #FEF344",
":. c #D6CBAA",
">. c #FFF14A",
",. c #F9DC2D",
"<. c #F8D329",
"1. c #EABD24",
"2. c #E0A612",
"3. c #D39825",
"4. c #EAD28A",
"5. c #EFCA36",
"6. c #7A7313",
"7. c #69542B",
"8. c #DCD1BA",
"9. c #3A2E1C",
"0. c #D39813",
"q. c #E0BD5C",
"w. c #E4B41C",
"e. c #6A6100",
"r. c #C0AE82",
"t. c #39321D",
"y. c #5F431D",
"u. c #523A07",
"i. c #F3CE2A",
"p. c #F1C521",
"a. c #D3930A",
"s. c #D09830",
"d. c #E7C455",
"f. c #E2B42D",
"g. c #D7990E",
"h. c #D8A117",
"j. c #4B361C",
"k. c #664C27",
"l. c #735426",
"z. c #F3CD25",
"x. c #473920",
"c. c #ECBC1C",
"v. c #EBB61A",
"b. c #E4AA13",
"n. c #D0A250",
"m. c #E4C260",
"M. c #E0B335",
"N. c #E7B217",
"B. c #FEE648",
"V. c #805F2F",
"C. c #F4D026",
"Z. c #F0C01C",
"A. c #393429",
"S. c #DEA00E",
"D. c #E8CA76",
"F. c #DCA414",
"G. c #876737",
"H. c #D18E0A",
"J. c #E2B843",
"K. c #DFB12D",
"L. c #CE8D0A",
"P. c #DA9B0B",
"I. c #EFC01E",
"U. c #23261F",
"Y. c #775C31",
"T. c #E9B214",
"R. c #EAAF11",
"E. c #282922",
"W. c #DBAA48",
"Q. c #E6BB2D",
"!. c #6E6421",
"~. c #B79221",
"^. c #E2A30E",
"/. c #D29307",
"(. c #DCB459",
"). c #DDB133",
"_. c #E5B723",
"`. c #E1B257",
"'. c #E2BC53",
"]. c #CC8B06",
"[. c #DAAB3A",
"{. c #C88706",
"}. c #C78813",
"|. c #C48304",
" X c #C07E00",
".X c #BC7C01",
"XX c #B47502",
"oX c #AA6D00",
"OX c #E9C34C",
"+X c #A46901",
"@X c #8E5800",
"#X c #8C5200",
"$X c #975A03",
"%X c #B67A01",
"&X c #935C00",
"*X c #B88823",
"=X c #A87416",
"-X c #B67B14",
";X c #C99E39",
":X c #E4C56C",
">X c #98610B",
",X c #9B6101",
"<X c #D8BB75",
"1X c #BE9535",
"2X c #AE7101",
"3X c #C79427",
"4X c white",
/* pixels */
"                                                                                                    ",
"                                                                                                    ",
"                                                                                                    ",
"                  . . . . . . . X       X X . . . X X                   X X . . . X                 ",
"                  . . . . . . . X       X X . . . X X                   X X . . . X                 ",
"            . . . o o O O O o o . . . . . . o o + @ # . X X   X X . . . . . o o o . . . X           ",
"          . o o O O O O O O O O O O O O O O O $ % & * o . . . . . o O O O O O O O O o o . X X       ",
"          . o o O O O O O O O O O O O O O O = - ; : > , . . . . . o O O O O O O O O o o . X X       ",
"      . . o O O O O O O O O O O O O O O O O , - < : 1 2 3 O O O O O O O O O 4 O O O O O o . .       ",
"      . . O O O O O O O O O O O O O O O O 5 6 7 8 : : 9 2 0 O O O O O O O O O O O O O O O . .       ",
"      . . O O O O O O O O O O O O O O O q w e * : : : > r 2 O O O O O O O O O O O O O O O . .       ",
"      . . o O O O O O O O O O O O O O O , t y 2 : : : u i p O O O O O O O O O O O O O O o . .       ",
"      . . o O O O O O O O O O O O O O O w a s p : : : d f g 3 O O O O O O O O 4 4 O O O o . .       ",
"      . . o O O O O O O O O O O O O O q h j k > : : : l > z p x O O O O O O O 4 4 O O O o . .       ",
"      X X . O O O O O O O O O O O O O , a j 7 l : : : l > c v p b O O O O O 4 o o O O O . X X       ",
"      X X . O O O O O O O O O O O O = w n - m 8 : : : d M N i v B O O O O O 4 o o O O O . X X       ",
"      V V . o o O O O O O O O O O C Z j n m v : : : A u u > c i S D F G % % H % n 7 J O . X X       ",
"      V V . o o O O O O O O O O K L L P 7 F d : : I U u M M Y c i p D & G G G G G & x T o . .       ",
"      V V . o o O O O O O O R y E L P W D u : : Q A d u M M N Y c S S p D D D p v S ! 5 o . .       ",
"          X . . O ~ ^ / ( ) H W % & ; _ : : : I U d u M > > Y c c z z z i ` ` ` ' ] h [ O . .       ",
"          X . . j s s W n 7 { f U : : : : : : < d u M > > N f } | ` z z i i ` ]  .{ ..O o . .       ",
"          X . , n G D u X.o.: : : : : : : o.1 d O.+.; > ; ; f O.@.#.i i ' ! ! $.%.&.J O o . .       ",
"      X X . = 6 i z Y u u *.l U U < < < d u u @ =.Q -.f z z ;.+.:.>.r  .,.,.<.1.2.3.O O o . .       ",
"      . . o 4.5.g i z > > > u u *.*.*.u u M ; 6.7.Q 8.z ;.;.' 9.7.E $.,.%.%.&.2.0.J O O . X X       ",
"      . . o O q.w.w.h ;.z f > > M M M > ; ; f e.=.8.r.;.;.! ] t.y.u.i.i.p.p.1.a.s.O O O . X X       ",
"      . . o O O d.f.Z g.h.1.$.] ! ;.>.;.;.! ' x j.k.l.,.,.,.z.x.k.7.c.&.v.b.g.n.O O O O . V V       ",
"      . . o O O O m.M.Z 0.a.N.1.i. .] ] ] ] ] B.j.l.V.<.<.C.Z.A.k.7.c.v.b.S.a.O O O O O . V V       ",
"      X X . O O O O D.f.Z e a.g.F.&.z.<.,.,.,.%.j.V.G.z.Z.Z.c.+.=.7.N.b.2.g.H.O O O O O . V V       ",
"      V V . o o O O O 0 J.K.Z e L.a.P.b.I.Z.Z.Z.U.Y.G.v.T.T.R.b.A.2.2.P.g.H.s.O O O O O . X X       ",
"      V V . o o O O O O O J.f.Z e L.a.P.N.c.c.Z.t.U.E.T.b.R.b.S.S.S.S.g.P.L.W.O O O O O . X X       ",
"      V V . o o O O O O O # K.Q.Q.L.L.g.b.R.T.T.R.!.~.b.R.b.^.^.S.P.P.P./.L.(.O O O O O o . .       ",
"          X . . O O O O O O M.).Q._.a.L.g.^.^.b.b.b.^.^.P.S.P.P.P.a.a.a.a.H.`.O O O O O o . .       ",
"          X . . O O O O O O J.f.Q.Z 0.H.g.P.F.^.^.^.^.P.P.P.P.a.a.a.a.H.H.H.W.O O O O O o . .       ",
"          X . . O O O O O O '.f.Q.t F.a.a.P.P.S.P.P.P.P.P.P.a././.a.].].].H.[.O O O O O . X X       ",
"      X X . o o O O O O O O d.Z a a F.a.a.a./.a.a././././.H.].{.].{.{.{.{.}.3.O O O O O . X X       ",
"      X X . o o O O O O O O d.Q.a &.h.a.H.].H././././.].|.|. X X X|. X{.|.{.3.O O O O O . X X       ",
"      . . o O O O O O O O O d.Z a 1.0.a.].].].].].].]. X.XXXoXoXXX.X.X.X|.|.}.O O O O O o . .       ",
"      . . O O O O O O 4 4 O OXZ t _.) L.|.|.|.|.|.XX+X@X#X$X$X#X#X@X$XoXXX.X}.O O O O O O . .       ",
"      . . O O O O O O 4 4 O OXa t b.L.|.|.|..X%X+X&X@X*X$ [.s.~.=X#X@X$XXXXX-XO O O O O O . .       ",
"      . . o O O 4 O O 4 4 O OXa t h.{.|..X%XXX$X@X$X;X4 o o :X'.[.*X>X#X$XoX-XO O O O O o . .       ",
"      . . o O O 4 O O 4 4 O OXt t L..XXX,X,X,Xq.O O O 4 o o o o o O O 4.(.<XO O O O O O o . .       ",
"      . . o o o o O O o o O OXt a |.XXoX,X&X1XO O o o o o o o o o o o o o o O O O o o o o . .       ",
"      X X . o o o o o o o o d.a a %X2X+X=Xm.o o o o o o . . . . . o o o o o o o o o o o . X X       ",
"      X X . o o o o o o o o o R f.3X$ :Xo o o o o o o o . . . . . o o o o o o o o o o o . X X       ",
"      V V X . . . o o o o o o o D.4.. . o o o o o . . . X X   X X . . . . . o o o . . . X V V       ",
"      V V V     X . . . . . . . X     X . . . . . X X   V V V V V V     X X . . . X V V V V V       ",
"      V V V     X . . . . . . . X     X . . . . . X X   V V V V V V     X X . . . X V V V V V       ",
"          V V V V V V V V V V V V V V V V V V V V V V V V V V V V V V V V V V V V V V V V           ",
"                V V V V V V V V V V V V V V V V V V V                   V V V V V V                 ",
"                V V V V V V V V V V V V V V V V V V V                   V V V V V V                 "
};
