/* XPM */
static char *result[] = {
/* columns rows colors chars-per-pixel */
"50 50 11 1 ",
"  c #1E7CB8",
". c white",
"X c #5AAEE4",
"o c gray9",
"O c #328E41",
"+ c #3ABE41",
"@ c #E8D4B2",
"# c #6ADD4B",
"$ c #BFA787",
"% c #165C88",
"& c white",
/* pixels */
"                                                  ",
"                                                  ",
"                                                  ",
"         .......X  oooooooooooo     XX...X        ",
"         .......X  oooooooooooo     XX...X        ",
"      ...OO+++Ooooo@@@@@@@@@@@@oooo...OOO...X     ",
"     .OO+++++++oooo@@@@@@@@@@@@oooo+++++++OO.XX   ",
"     .OO+++++oo@@@@@@@@@@@@@@@@@@@@oo+++++OO.XX   ",
"   ..O+++++++oo@@@@@@@@@@@@@@@@@@@@oo+#+++++O..   ",
"   ..++++++++oo@@@@@@@@@@@@@@@@@@@@oo++++++++..   ",
"   ..++++++++oo@@@@@@@@@@@@@@@@@@@@oo++++++++..   ",
"   ..O+++++oo$$@@@@@@@@@@@@@@@@@@@@$$oo+++++O..   ",
"   ..O+++++oo$$@@@@@@@@@@@@@@@@@@@@$$oo##+++O..   ",
"   ..O+++++oo@@@@@@@@@@@@@@@@@@@@@@@@oo##+++O..   ",
"   XX.+++++oo@@@@@@@@@@@@@@@@@@@@@@@@ooOO+++.XX   ",
"   XX.+++++oo@@@@@@@@@@@@@@@@@@@@@@@@ooOO+++.XX   ",
"   %%.OO+++oo@@@@@@@@@@@@@@@@@@@@@@@@oo+++++.XX   ",
"   %%.OO+++oo$$@@@@oo@@@@@@@@oo@@@@$$oo+++++O..   ",
"   %%.OO+++oo$$@@@@oo@@@@@@@@oo@@@@$$oo+++++O..   ",
"     X..+++++oo@@@@oo@@@@@@@@oo@@@@oo++++++++..   ",
"     X..+++++oo@@@@oo@@@@@@@@oo@@@@oo+++++++O..   ",
"     X..+++++oo$$@@@@@@@@@@@@@@@@$$oo+++++++O..   ",
"   XX.OO+++++oo$$@@@@@@@@@@@@@@@@$$oo+++++++O..   ",
"   ..O+++++++++oo$$@@@@@@@@@@@@$$oo+++++++++.XX   ",
"   ..O+++++++++oo$$@@@@@@@@@@@@$$oo+++++++++.XX   ",
"   ..O+++++++oo@@@@@@@@@@@@@@@@@@$$oo+++++++.%%   ",
"   ..O+++++++oo@@@@@@@@@@@@@@@@@@$$oo+++++++.%%   ",
"   XX.+++++++oo@@@@oo@@@@@@@@@@oo$$oo+++++++.%%   ",
"   %%.OO+++++oo@@@@oo@@@@@@@@@@oo$$oo+++++++.XX   ",
"   %%.OO+++++oo@@$$oo@@@@@@@@@@oooo+++++++++.XX   ",
"   %%.OO+++++oo@@$$oo@@@@@@@@@@oooo+++++++++O..   ",
"     X..+++++oo$$$$oo@@@@@@@@@@oo#++++++++++O..   ",
"     X..+++++oo$$$$oo@@@@@@@@@@oo#++++++++++O..   ",
"     X..+++++++oooo$$$$$$$$@@@@ooO++++++++++.XX   ",
"   XX.OO+++++++oooo$$$$$$$$@@@@oo+++++++++++.XX   ",
"   XX.OO+++++++++oo$$$$oooo$$@@oo+++++++++++.XX   ",
"   ..O+++++++++++oo$$$$oooo$$@@oo+++++++++++O..   ",
"   ..++++++##++++++oooo++oo$$$$oo++++++++++++..   ",
"   ..++++++##++++++oooo++oo$$$$oo++++++++++++..   ",
"   ..O++#++##++++++++++++++ooooOO+++++++++++O..   ",
"   ..O++#++##++++++++++++++ooooOO+++++++++++O..   ",
"   ..OOOO++OO+++OOOO##+++OOOOOOOOOOOOO+++OOOO..   ",
"   XX.OOOOOOOOOOOOOOOOOOOOOO.....OOOOOOOOOOO.XX   ",
"   XX.OOOOOOOOOOOOOOOOOOOOOO.....OOOOOOOOOOO.XX   ",
"   %%X...OOOOOOO....OOOOO...XX XX.....OOO...X%%   ",
"   %%%  X.......X  X.....XX %%%%%%  XX...X%%%%%   ",
"   %%%  X.......X  X.....XX %%%%%%  XX...X%%%%%   ",
"     %%%%%%%%%%%%%%%%%%%%%%%%%%%%%%%%%%%%%%%%     ",
"        %%%%%%%%%%%%%%%%%%%         %%%%%%        ",
"        %%%%%%%%%%%%%%%%%%%         %%%%%%        "
};
