/* XPM */
static char *bf81e2180c6f45b3ca3eb9434adeb230Lzv2Iqu3QTA35kxd[] = {
/* columns rows colors chars-per-pixel */
"64 64 207 2 ",
"   c None",
".  c #0F1313",
"X  c #101414",
"o  c #1A1515",
"O  c #151A1A",
"+  c #1B1E1E",
"@  c #1B1718",
"#  c #36160C",
"$  c #3E1A0B",
"%  c #2C1812",
"&  c #221D1D",
"*  c #291C19",
"=  c #331A13",
"-  c #341D1C",
";  c #3B1C1B",
":  c #2A2119",
">  c #34231D",
",  c #3B231D",
"<  c #37281D",
"1  c #1B1F20",
"2  c #211F21",
"3  c #1C2222",
"4  c #222425",
"5  c #2A2625",
"6  c #2E2825",
"7  c #222728",
"8  c #242A2C",
"9  c #2B2A2C",
"0  c #282628",
"q  c #342423",
"w  c #3D2524",
"e  c #322E2D",
"r  c #3A2C2B",
"t  c #342A24",
"y  c #37322B",
"u  c #262C30",
"i  c #292E32",
"p  c #382F32",
"a  c #2E3134",
"s  c #2D353A",
"d  c #2D383E",
"f  c #333334",
"g  c #3A3434",
"h  c #333539",
"j  c #3B3739",
"k  c #33393D",
"l  c #3C393A",
"z  c #4A1D0D",
"x  c #441C1B",
"c  c #4D1C1C",
"v  c #4A1B13",
"b  c #511B1C",
"n  c #5B1F1D",
"m  c #561D17",
"M  c #43231B",
"N  c #482A15",
"B  c #59221A",
"V  c #4E3118",
"C  c #573816",
"Z  c #5D330C",
"A  c #63330D",
"S  c #673919",
"D  c #432121",
"F  c #4A2323",
"G  c #4C2B2C",
"H  c #472B29",
"J  c #552827",
"K  c #493528",
"L  c #59382A",
"P  c #433534",
"I  c #443936",
"U  c #443B3B",
"Y  c #4A3E3D",
"T  c #4D3935",
"R  c #513434",
"E  c #6B2222",
"W  c #672926",
"Q  c #722B26",
"!  c #7A2C2C",
"~  c #762829",
"^  c #683737",
"/  c #753738",
"(  c #3E403F",
")  c #63411B",
"_  c #47433A",
"`  c #50403F",
"'  c #5B4736",
"]  c #594024",
"[  c #6B4A24",
"{  c #644727",
"}  c #7D4E28",
"|  c #744924",
" . c #775124",
".. c #704330",
"X. c #6E4F3A",
"o. c #333D43",
"O. c #3A3E43",
"+. c #4C3E40",
"@. c #3B4146",
"#. c #3D454B",
"$. c #3F484F",
"%. c #32434D",
"&. c #354651",
"*. c #3C4A54",
"=. c #3B4F5A",
"-. c #3A515E",
";. c #3E5563",
":. c #424446",
">. c #4D4242",
",. c #43464B",
"<. c #4A4C4C",
"1. c #484849",
"2. c #524444",
"3. c #534C4C",
"4. c #5B4845",
"5. c #5A554A",
"6. c #434C53",
"7. c #4E4F50",
"8. c #44525B",
"9. c #4A565D",
"0. c #495157",
"q. c #545153",
"w. c #55565A",
"e. c #585659",
"r. c #5B5858",
"t. c #664749",
"y. c #685C4A",
"u. c #635B5A",
"i. c #645855",
"p. c #6D615E",
"a. c #7E614B",
"s. c #465762",
"d. c #4B5B65",
"f. c #4C5E69",
"g. c #455D6B",
"h. c #535B62",
"j. c #5F5960",
"k. c #52636D",
"l. c #5E676E",
"z. c #4B6472",
"x. c #5B6A73",
"c. c #556B79",
"v. c #5C717C",
"b. c #4B606C",
"n. c #6D6361",
"m. c #6B676A",
"M. c #716867",
"N. c #726B6A",
"B. c #786968",
"V. c #7A726B",
"C. c #797577",
"Z. c #687077",
"A. c #802E2E",
"S. c #843131",
"D. c #81482C",
"F. c #8D583A",
"G. c #894E32",
"H. c #9B7253",
"J. c #9B6A66",
"K. c #827A79",
"L. c #847574",
"P. c #866663",
"I. c #94816E",
"U. c #5D7381",
"Y. c #627682",
"T. c #6B7E8A",
"R. c #687883",
"E. c #717F88",
"W. c #757981",
"Q. c #6D818C",
"!. c #72838D",
"~. c #6F8490",
"^. c #748792",
"/. c #768A95",
"(. c #788A95",
"). c #7B8F9A",
"_. c #798790",
"`. c #7E919C",
"'. c #978C8A",
"]. c #83949E",
"[. c #8D9197",
"{. c #8B9095",
"}. c #AA9693",
"|. c #899BA5",
" X c #969EA4",
".X c #8CA0AB",
"XX c #98A4AA",
"oX c #97A9B3",
"OX c #BCA9A3",
"+X c #A5B5BE",
"@X c #ABB5BB",
"#X c #B3B1B3",
"$X c #C9A49D",
"%X c #C9A7A2",
"&X c #CCB9B6",
"*X c #E1C4BC",
"=X c #B1BFC6",
"-X c #AFBCC3",
";X c #B7C4CA",
":X c #D6C6C2",
">X c #D9C9C5",
",X c #DCCCC8",
"<X c #C1CDD2",
"1X c #C5D0D5",
"2X c #E2CBC4",
"3X c #E6D1CB",
"4X c #F3DBD3",
/* pixels */
"                                  X X X                                       X X X X                                           ",
"                        X       X X X X X X       X X                 X     X X X X X X X       X X                             ",
"                      X X     X X X X X X X X       X               X X   X X X X X X X X         X                             ",
"              X X X           X X X X X X X     X X       . . .             X X X X X X X   X X         X X X                   ",
"            X X X X X             X X X       X X X     X X . X X .           X X X X       X X       X X X X X                 ",
"          X X X X X X X     X X X               X     X + O O 3 O O     . X X                       X X X X X X X     X X X     ",
"          X X X X X X X   X X X X       . . X X . .   . X X O 3 3 O X X . . . .   . . X X X X X     X X X X X X X     X X X     ",
"            X X X X X       X X X     . . X O O X X O . . . X O O X O O X X O O X . . . . . X X X     X X X X X         X X     ",
"                      X X X X X     . X X X O O X + 3 X . X X X X X O X O 3 3 3 O X X X X . . . . .             X X X           ",
"          X X X X   X X X . . . . . X O + O X . X O O X O + 3 3 3 1 O X O O O O O X + 3 + O X . . . . . X X     X X X X         ",
"        X X X X X X X . . . X . . X + 3 3 3 + X . X X X O 3 3 3 3 3 3 3 O . X X X O 3 3 3 3 + X X O X . . X     X X X           ",
"        X X X X   . . . X O + O X O 3 7 3 3 O O O + 3 3 + + 3 3 3 7 3 + O O + + + O O 3 3 3 3 O X O O . .                       ",
"      X         X . . X O 3 3 + X X + 8 7 3 O 3 3 3 3 3 3 + + @ @ @ + + 3 3 3 3 8 7 + 3 3 3 3 + X X O O X . . X X X             ",
"    X X X       . . X X 3 7 7 O . . O O + 3 7 8 3 3 3 3 3 + @ @ @ @ @ + 7 3 3 3 8 3 3 O O + O X . O 3 3 O . . . X X X       X   ",
"    X X X     . . X O O O 3 1 X X X + 3 3 3 3 7 3 3 8 8 3 1 7 i f i 4 + @ + 7 8 3 3 3 O X X X . X + 3 3 + X . . X X X       X X ",
"              . . X O X X X X X O + 3 3 7 3 3 3 7 7 8 8 0 9 o.*.8.#.9 & @ 3 8 i 8 3 3 + O 3 1 O X X + 3 3 O . . X X   X X       ",
"X X X X X       . . X O X . . O 7 3 3 8 8 7 7 7 7 8 9 f <.w.d.g.b.*.9 4 a a 9 8 7 3 7 3 3 8 8 7 + X X O O . . . X               ",
"  X X X X   X X . . O 3 + X X 3 u 8 7 8 8 7 7 7 8 a l 7.C.{.Q.U.c.8.k h #.O.h i 0 8 7 7 7 8 8 7 3 O . . X X X . . X       X X X ",
"      X       . . . O 7 3 O X 7 8 8 8 8 8 7 7 7 9 h q.C.XX@XXX/.U.k.h.0.6.,.@.k a 8 7 7 7 7 7 3 3 + O O + + O . . X     X X X X ",
"                . X 3 8 3 O X 3 3 7 8 i 8 7 8 8 h <.Z. X;X<X=XXXQ.R.E.Z.9.6.8.#.k 9 3 3 8 8 8 7 3 3 O 1 3 3 + X . . .       X X ",
"              . . O 3 3 + O O + 3 7 8 8 8 8 9 f ,.l.].+X;X1X<X@X].).|._.h.9.f.8.O.0 o 1 u i 8 7 3 3 + 3 3 3 + O X O X .         ",
"            . X X O + O 3 3 3 3 3 7 7 7 3 4 9 k h.E.|.+X;X;X<X-X|.|..X^.f.d.k.9.O.4 o + u i 8 7 3 3 3 3 O 3 O X X O X .         ",
"            X + O . X + 3 3 7 7 7 7 8 8 3 o 0 @.x./.|.oX@X;X=X+X|.`.).Y.s.s.k.9.O.4 o + 8 8 7 7 3 3 8 3 O O X X X . .           ",
"      X .   O O O X + 3 3 3 7 7 7 8 i i 4 o 4 #.x.^.`.|.XXoXoX.X`.~.U.d.o.#.d.8.O.4 o 1 7 8 8 8 7 3 3 3 + X X + + X             ",
"        X       X X O + 3 3 3 7 7 8 8 i 0 @ 0 @.k.T.~.^.`.`./.Q.R.v.z.&.8 k 8.0.O.0 @ 4 8 u i u 3 3 3 3 3 O X + O X             ",
"  X X         . O O X O 3 3 7 8 7 + 4 e e 6 9 o.d.Y.T.T.T.Y.k.8.8.s.;.%.8 h 8.8.#.i 4 7 8 i i u 7 0 8 8 7 O . X X . .           ",
"  X X       . X X X X + 3 3 8 8 4 + 6 >.1.U l o.8.v.Y.Y.c.d.,.j f O.8.*.f k 6.8.*.o.8 7 4 8 u 8 8 i i i 8 O X O O X X           ",
"          . . O O X X + 3 3 8 2 & 6 >.M.N.u.1.o.=.z.c.c.d.6.+.G ; H w.h.<.1.$.=.;.&.s 7 + 7 8 7 8 i i i 8 O X + 3 3 O . . X     ",
"          . X O + + 1 O 3 + + & e 3.n.V.m.w.6.&.-.g.g.s.6.q.V.P.^ ^ K.'.'.C.w.6.=.&.d 4 @ 0 u 8 3 7 8 7 + X X O + O X . . X     ",
"            X X X + 3 3 3 @ & 6 >.V.K.n.q.#.#.=.=.=.*.*.1.M.#X&XJ.J.%X2X3XOXL.e.$.o.s 4 @ 0 u 8 3 3 3 + O O O X X X . . . X     ",
"                X + 3 3 3 @ 6 q.N.N.M.n.u.3.@.s a s h :.n.'.:X3X%X$X*X4X4X2XOXK.e.O.i 0 0 8 8 7 7 3 3 + 3 3 3 O . X X           ",
"          . X X X + 3 3 3 @ e M.C.u.i.p.p.i.T < : : 6 >.L.OX&X:X>X>X:X>X,X>X&X'.u.O.8 7 8 8 8 8 8 7 3 3 7 3 3 O X X X .         ",
"  X     . . O + X + 3 7 3 O 4 l 3.p.n.i.5.' { { C N t l m.{.[. X#X@XXXXX@X XK.r.:.h i 8 8 u i i 8 3 3 7 7 7 3 3 X . .           ",
"X X     . . O O X X 3 7 3 O + + e r.u.5.' { [  .) V , p 6.k.v.Q.].|.(./._.m.>.g 9 u i i 8 i i i i 3 3 3 3 3 3 O X X             ",
"      X         . . X O 3 3 + 3 0 e I ' [  .| ) V M x F p #.k.Y.T./.].!.h.+.G D - 6 8 8 8 8 i i i 3 3 3 O 1 O X O O             ",
"    X X X       . . X O 3 3 3 3 3 4 6 K ] { C V M x b b q 9 1.e.j.m.C.M.4.G F ; - & 4 8 8 8 8 8 8 3 3 3 O X . . X X .       X   ",
"    X X X     . . X O 3 3 7 3 3 7 7 9 6 > < , M J J n c - * w J L ^ / / / W D - & & & 0 u 8 7 7 7 3 7 3 + X X O O O .       X X ",
"    X         . . X 3 3 7 7 7 8 u 8 4 & & 9 l 3.t.t.J x = = v B E ~ ! ! ! W D q i i 9 0 4 7 7 7 8 u u u 3 O O 3 3 O . . .       ",
"X X X X X       . X O 3 7 7 8 i i i 4 @ 4 k h.R.W.m.U = # v m E ! S.S.A.~ n ; p #.$.O.0 @ 7 8 8 i i i i 8 O O 3 + O X X         ",
"  X X X X   . X O X X O 3 3 3 8 u 8 3 o 4 @.k.Q.T.l.j % # z v n E ~ ~ ~ E b - g 6.8.#.9 o 4 8 7 8 i 8 8 3 O . X X X O X . . X X ",
"      X       X O X O X + 3 3 3 7 7 3 @ 0 @.d.v.x.9.g = $ z z B E Q Q Q Q B ; g 6.6.@.9 @ 3 7 3 7 8 7 3 + X X . . X X . . . X X ",
"              . X O 3 + + 3 3 3 3 3 7 4 0 f o.$.:._ K Z Z A A S | D.D.G.F...H e a h f 9 0 8 8 7 3 3 3 3 O + 3 O X O O .     X X ",
"              X X + 3 3 3 3 3 3 3 3 7 7 0 9 9 0 6 y L { [ [ [ | } } } F.H.a.T 6 2 4 9 8 i u 8 7 3 + O O + 3 3 O X O O X         ",
"            X . X + 3 3 7 + 3 3 3 7 8 8 7 7 4 @ : y _ 5.5.5.y.y.{ S S X.I.V.2.6 o + 7 7 8 8 7 7 3 O X O 3 3 + X . . . .         ",
"            X . . X 3 3 3 O + 3 8 u i u 8 7 1 @ 4 e ( <.<.7.r.4.K N N ' B.n.>.e & 3 8 8 7 7 7 7 8 3 X O 3 3 O . . .             ",
"      X X   X . . X O 3 + . O 3 8 u i i 8 8 7 8 a f h h j I Y P > % % H t.4.P e e 9 0 8 8 7 7 8 i 3 X O 3 3 X . . X             ",
"        X       . . X X X . . 3 3 8 u 8 9 j l l l j 6 5 > , , > q * * , J G q q e j j l j i 3 7 7 O . X O O . . . X             ",
"  X X         X X . . X O X X X 1 3 7 0 f >.2.2.Y P q % # $ = - r e 5 - c c ; q g Y 2.2.>.f 3 3 + X . X . X X X X               ",
"  X X       X X X . X O 3 3 O X X + 0 j Y 2.2.2.>.U r > , M , r I P e w J F w r P Y 2.2.2.Y g + X X + + X O O X                 ",
"          X X X X . . O 3 3 3 O . X 0 >.2.2.2.2.>.Y I P P P P I +.+.P I R R P I Y >.2.2.2.2.Y 6 + 3 3 3 O X X . .     X X       ",
"          X X X X . . X + 3 3 O X O 9 >.2.2.2.2.2.2.>.>.` ` >.>.2.2.>.2.2.2.2.2.2.2.2.2.2.2.2.Y g 7 3 3 O . . . .     X X X     ",
"            X X X . . . X O O X X + 9 l Y 2.2.2.2.2.2.2.2.2.2.2.2.2.2.2.2.2.2.2.2.2.2.2.2.Y I j e 7 + O X . . X       X X X     ",
"                      . . X O O X O 3 7 f >.2.2.2.2.2.2.2.2.2.2.2.2.2.2.2.2.2.2.2.2.2.2.>.e 4 O O X X . .         X X           ",
"          X X X X     . . . X O X . X X 4 e f e U 2.2.2.2.2.2.2.2.2.2.2.2.2.2.2.2.I j j f 3 O . . . . . . X     X X X X         ",
"        X X X X X     X . .     X . . . X X X + e >.>.>.>.>.>.>.>.>.>.>.>.>.>.>.Y 6 O O O X . . . X X X X X     X X X           ",
"        X X X X                 X X X . . . X + 0 0 0 0 0 9 e 6 0 e e e 0 9 e e 9 3 . .   . .     X X X X                       ",
"                  X X X X               . . X X O X X . . X O X . O + O X O + 3 + X . .                     X X X X             ",
"                X X X X X X       X     X . . . . O O     . . X X X X . . . X X X . . .       X X X       X X X X X X           ",
"              X X X X X X X       X X   X X     . O O       O + 3 O . .     . . .   X X X     X X X     X X X X X X X           ",
"              X X X X X X   X X         X X                 X O + O X     X           X                 X X X X X X             ",
"                  X X                         X X X X       . . X X                       X X X X X       X X X                 ",
"                                X X X         X X X X X   X X       .       X X X           X X X X     X X                     ",
"                              X X X X X           X X     X X     X X X   X X X X X             X X     X                       ",
"                                  X X                                         X X X                                             "
};
